; generated by PrusaSlicer 2.4.1+arm64 on 2022-07-26 at 00:22:22 UTC

; 

; external perimeters extrusion width = 0.45mm
; perimeters extrusion width = 0.45mm
; infill extrusion width = 0.45mm
; solid infill extrusion width = 0.45mm
; top infill extrusion width = 0.40mm
; first layer extrusion width = 0.42mm

M107
;TYPE:Custom
G90 ; use absolute coordinates
M83 ; extruder relative mode
M140 S85 ; set final bed temp
M104 S150 ; set temporary nozzle temp to prevent oozing during homing and auto bed leveling
G4 S10 ; allow partial nozzle warmup
G28 ; home all axis
G1 Z50 F240
G1 X2 Y10 F3000
M104 S240 ; set final nozzle temp
M190 S85 ; wait for bed temp to stabilize
M109 S240 ; wait for nozzle temp to stabilize
G1 Z0.28 F240
G92 E0
G1 Y140 E10 F1500 ; prime the nozzle
G1 X2.3 F5000
G92 E0
G1 Y10 E10 F1200 ; prime the nozzle
G92 E0
G21 ; set units to millimeters
G90 ; use absolute coordinates
M83 ; use relative distances for extrusion
M900 K0.08 ; Filament gcode LA 1.5
M900 K200 ; Filament gcode LA 1.0
M107
;LAYER_CHANGE
;Z:0.2
;HEIGHT:0.2
;BEFORE_LAYER_CHANGE
G92 E0
;0.2


G1 E-1 F3600
G1 Z.2 F9000
;AFTER_LAYER_CHANGE
;0.2
G1 Z.4
G1 X40.316 Y56.481
G1 Z.2
G1 E1 F2400
M204 S500
;TYPE:Skirt/Brim
;WIDTH:0.42
G1 F1200
G1 X41.082 Y55.999 E.02838
G1 X42.618 Y55.372 E.05201
G1 X43.355 Y55.204 E.02371
G1 X44.632 Y55.081 E.04024
G1 X191.01 Y55.102 E4.58958
G1 X192.647 Y55.372 E.05201
G1 X194.183 Y55.999 E.05201
G1 X195.54 Y56.952 E.05201
G1 X196.18 Y57.592 E.02838
G1 X196.705 Y58.268 E.02682
G1 X197.461 Y59.631 E.04889
G1 X197.929 Y61.223 E.05201
G1 X198.051 Y62.5 E.04024
G1 X198.051 Y168.5 E3.32356
G1 X197.929 Y169.777 E.04024
G1 X197.76 Y170.515 E.02371
G1 X197.133 Y172.05 E.05201
G1 X196.18 Y173.408 E.05201
G1 X194.949 Y174.519 E.05201
G1 X193.501 Y175.329 E.05201
G1 X192.647 Y175.628 E.02838
G1 X191.91 Y175.796 E.02371
G1 X190.632 Y175.919 E.04024
G1 X44.632 Y175.919 E4.57773
G1 X43.355 Y175.796 E.04024
G1 X42.618 Y175.628 E.02371
G1 X41.082 Y175.001 E.05201
G1 X40.316 Y174.519 E.02838
G1 X39.047 Y173.37 E.05366
G1 X34.703 Y168.888 E.1957
G1 X33.867 Y167.889 E.04085
G1 X33.12 Y166.439 E.05115
G1 X32.825 Y165.321 E.03626
G1 X32.708 Y164.337 E.03106
G1 X32.698 Y66.62 E3.06384
G1 X32.816 Y65.633 E.03117
G1 X33.111 Y64.515 E.03627
G1 X33.58 Y63.521 E.03444
G1 X34.03 Y62.832 E.0258
G1 X34.711 Y62.052 E.03248
G1 X39.061 Y57.616 E.1948
G1 X40.271 Y56.521 E.05116
G1 E-.7 F3600
;WIPE_START
G1 F7200
G1 X40.776 Y56.196 E-.285
;WIPE_END
G1 E-.015 F3600
G1 Z.4 F9000
G1 X88.444 Y112.813
G1 Z.2
G1 E1 F2400
;TYPE:Perimeter
G1 F1200
G1 X90.818 Y112.813 E.07444
G1 X90.818 Y124.187 E.35663
G1 X88.444 Y124.187 E.07444
G1 X88.444 Y112.873 E.35475
G1 X88.821 Y113.19 F9000
;TYPE:External perimeter
G1 F1200
G1 X90.441 Y113.19 E.05079
G1 X90.441 Y123.81 E.33298
G1 X88.821 Y123.81 E.05079
G1 X88.821 Y113.25 E.3311
G1 X88.8 Y112.791 F9000
G1 X88.318 Y112.813
;TYPE:Perimeter
G1 F1200
G1 X88.318 Y124.187 E.35663
G1 X85.944 Y124.187 E.07444
G1 X85.944 Y112.813 E.35663
G1 X88.258 Y112.813 E.07256
G1 X87.941 Y113.19 F9000
;TYPE:External perimeter
G1 F1200
G1 X87.941 Y123.81 E.33298
G1 X86.321 Y123.81 E.05079
G1 X86.321 Y113.19 E.33298
G1 X87.881 Y113.19 E.04891
G1 X88.297 Y113.008 F9000
G1 E-.7 F3600
;WIPE_START
G1 F7200
G1 X87.884 Y113.79 E-.285
;WIPE_END
G1 E-.015 F3600
G1 Z.4 F9000
G1 X85.818 Y112.813
G1 Z.2
G1 E1 F2400
;TYPE:Perimeter
G1 F1200
G1 X85.818 Y124.187 E.35663
G1 X83.444 Y124.187 E.07444
G1 X83.444 Y112.813 E.35663
G1 X85.758 Y112.813 E.07256
G1 X85.441 Y113.19 F9000
;TYPE:External perimeter
G1 F1200
G1 X85.441 Y123.81 E.33298
G1 X83.821 Y123.81 E.05079
G1 X83.821 Y113.19 E.33298
G1 X85.381 Y113.19 E.04891
G1 X85.797 Y113.008 F9000
G1 E-.7 F3600
;WIPE_START
G1 F7200
G1 X85.384 Y113.79 E-.285
;WIPE_END
G1 E-.015 F3600
G1 Z.4 F9000
G1 X83.318 Y112.813
G1 Z.2
G1 E1 F2400
;TYPE:Perimeter
G1 F1200
G1 X83.318 Y124.187 E.35663
G1 X80.944 Y124.187 E.07444
G1 X80.944 Y112.813 E.35663
G1 X83.258 Y112.813 E.07256
G1 X82.941 Y113.19 F9000
;TYPE:External perimeter
G1 F1200
G1 X82.941 Y123.81 E.33298
G1 X81.321 Y123.81 E.05079
G1 X81.321 Y113.19 E.33298
G1 X82.881 Y113.19 E.04891
G1 X83.297 Y113.008 F9000
G1 E-.7 F3600
;WIPE_START
G1 F7200
G1 X82.884 Y113.79 E-.285
;WIPE_END
G1 E-.015 F3600
G1 Z.4 F9000
G1 X80.818 Y112.813
G1 Z.2
G1 E1 F2400
;TYPE:Perimeter
G1 F1200
G1 X80.818 Y124.187 E.35663
G1 X78.444 Y124.187 E.07444
G1 X78.444 Y112.813 E.35663
G1 X80.758 Y112.813 E.07256
G1 X80.441 Y113.19 F9000
;TYPE:External perimeter
G1 F1200
G1 X80.441 Y123.81 E.33298
G1 X78.821 Y123.81 E.05079
G1 X78.821 Y113.19 E.33298
G1 X80.381 Y113.19 E.04891
G1 X80.797 Y113.008 F9000
G1 E-.7 F3600
;WIPE_START
G1 F7200
G1 X80.384 Y113.79 E-.285
;WIPE_END
G1 E-.015 F3600
G1 Z.4 F9000
G1 X78.318 Y112.813
G1 Z.2
G1 E1 F2400
;TYPE:Perimeter
G1 F1200
G1 X78.318 Y124.187 E.35663
G1 X75.944 Y124.187 E.07444
G1 X75.944 Y112.813 E.35663
G1 X78.258 Y112.813 E.07256
G1 X77.941 Y113.19 F9000
;TYPE:External perimeter
G1 F1200
G1 X77.941 Y123.81 E.33298
G1 X76.321 Y123.81 E.05079
G1 X76.321 Y113.19 E.33298
G1 X77.881 Y113.19 E.04891
G1 X78.297 Y113.008 F9000
G1 E-.7 F3600
;WIPE_START
G1 F7200
G1 X77.884 Y113.79 E-.285
;WIPE_END
G1 E-.015 F3600
G1 Z.4 F9000
G1 X75.818 Y112.813
G1 Z.2
G1 E1 F2400
;TYPE:Perimeter
G1 F1200
G1 X75.818 Y124.187 E.35663
G1 X73.444 Y124.187 E.07444
G1 X73.444 Y112.813 E.35663
G1 X75.758 Y112.813 E.07256
G1 X75.441 Y113.19 F9000
;TYPE:External perimeter
G1 F1200
G1 X75.441 Y123.81 E.33298
G1 X73.821 Y123.81 E.05079
G1 X73.821 Y113.19 E.33298
G1 X75.381 Y113.19 E.04891
G1 X75.797 Y113.008 F9000
G1 E-.7 F3600
;WIPE_START
G1 F7200
G1 X75.384 Y113.79 E-.285
;WIPE_END
G1 E-.015 F3600
G1 Z.4 F9000
G1 X73.318 Y112.813
G1 Z.2
G1 E1 F2400
;TYPE:Perimeter
G1 F1200
G1 X73.318 Y124.187 E.35663
G1 X70.944 Y124.187 E.07444
G1 X70.944 Y112.813 E.35663
G1 X73.258 Y112.813 E.07256
G1 X72.941 Y113.19 F9000
;TYPE:External perimeter
G1 F1200
G1 X72.941 Y123.81 E.33298
G1 X71.321 Y123.81 E.05079
G1 X71.321 Y113.19 E.33298
G1 X72.881 Y113.19 E.04891
G1 X73.297 Y113.008 F9000
G1 X73.318 Y112.187
;TYPE:Perimeter
G1 F1200
G1 X70.944 Y112.187 E.07444
G1 X70.944 Y100.813 E.35663
G1 X73.318 Y100.813 E.07444
G1 X73.318 Y112.127 E.35475
G1 X72.941 Y111.81 F9000
;TYPE:External perimeter
G1 F1200
G1 X71.321 Y111.81 E.05079
G1 X71.321 Y101.19 E.33298
G1 X72.941 Y101.19 E.05079
G1 X72.941 Y111.75 E.3311
G1 X72.961 Y112.209 F9000
G1 X73.444 Y112.187
;TYPE:Perimeter
G1 F1200
G1 X73.444 Y100.813 E.35663
G1 X75.818 Y100.813 E.07444
G1 X75.818 Y112.187 E.35663
G1 X73.504 Y112.187 E.07256
G1 X73.821 Y111.81 F9000
;TYPE:External perimeter
G1 F1200
G1 X73.821 Y101.19 E.33298
G1 X75.441 Y101.19 E.05079
G1 X75.441 Y111.81 E.33298
G1 X73.881 Y111.81 E.04891
G1 X73.465 Y111.992 F9000
G1 E-.7 F3600
;WIPE_START
G1 F7200
G1 X73.877 Y111.21 E-.285
;WIPE_END
G1 E-.015 F3600
G1 Z.4 F9000
G1 X75.944 Y112.187
G1 Z.2
G1 E1 F2400
;TYPE:Perimeter
G1 F1200
G1 X75.944 Y100.813 E.35663
G1 X78.318 Y100.813 E.07444
G1 X78.318 Y112.187 E.35663
G1 X76.004 Y112.187 E.07256
G1 X76.321 Y111.81 F9000
;TYPE:External perimeter
G1 F1200
G1 X76.321 Y101.19 E.33298
G1 X77.941 Y101.19 E.05079
G1 X77.941 Y111.81 E.33298
G1 X76.381 Y111.81 E.04891
G1 X75.965 Y111.992 F9000
G1 E-.7 F3600
;WIPE_START
G1 F7200
G1 X76.377 Y111.21 E-.285
;WIPE_END
G1 E-.015 F3600
G1 Z.4 F9000
G1 X78.444 Y112.187
G1 Z.2
G1 E1 F2400
;TYPE:Perimeter
G1 F1200
G1 X78.444 Y100.813 E.35663
G1 X80.818 Y100.813 E.07444
G1 X80.818 Y112.187 E.35663
G1 X78.504 Y112.187 E.07256
G1 X78.821 Y111.81 F9000
;TYPE:External perimeter
G1 F1200
G1 X78.821 Y101.19 E.33298
G1 X80.441 Y101.19 E.05079
G1 X80.441 Y111.81 E.33298
G1 X78.881 Y111.81 E.04891
G1 X78.465 Y111.992 F9000
G1 E-.7 F3600
;WIPE_START
G1 F7200
G1 X78.877 Y111.21 E-.285
;WIPE_END
G1 E-.015 F3600
G1 Z.4 F9000
G1 X80.944 Y112.187
G1 Z.2
G1 E1 F2400
;TYPE:Perimeter
G1 F1200
G1 X80.944 Y100.813 E.35663
G1 X83.318 Y100.813 E.07444
G1 X83.318 Y112.187 E.35663
G1 X81.004 Y112.187 E.07256
G1 X81.321 Y111.81 F9000
;TYPE:External perimeter
G1 F1200
G1 X81.321 Y101.19 E.33298
G1 X82.941 Y101.19 E.05079
G1 X82.941 Y111.81 E.33298
G1 X81.381 Y111.81 E.04891
G1 X80.965 Y111.992 F9000
G1 E-.7 F3600
;WIPE_START
G1 F7200
G1 X81.377 Y111.21 E-.285
;WIPE_END
G1 E-.015 F3600
G1 Z.4 F9000
G1 X83.444 Y112.187
G1 Z.2
G1 E1 F2400
;TYPE:Perimeter
G1 F1200
G1 X83.444 Y100.813 E.35663
G1 X85.818 Y100.813 E.07444
G1 X85.818 Y112.187 E.35663
G1 X83.504 Y112.187 E.07256
G1 X83.821 Y111.81 F9000
;TYPE:External perimeter
G1 F1200
G1 X83.821 Y101.19 E.33298
G1 X85.441 Y101.19 E.05079
G1 X85.441 Y111.81 E.33298
G1 X83.881 Y111.81 E.04891
G1 X83.465 Y111.992 F9000
G1 E-.7 F3600
;WIPE_START
G1 F7200
G1 X83.877 Y111.21 E-.285
;WIPE_END
G1 E-.015 F3600
G1 Z.4 F9000
G1 X85.944 Y112.187
G1 Z.2
G1 E1 F2400
;TYPE:Perimeter
G1 F1200
G1 X85.944 Y100.813 E.35663
G1 X88.318 Y100.813 E.07444
G1 X88.318 Y112.187 E.35663
G1 X86.004 Y112.187 E.07256
G1 X86.321 Y111.81 F9000
;TYPE:External perimeter
G1 F1200
G1 X86.321 Y101.19 E.33298
G1 X87.941 Y101.19 E.05079
G1 X87.941 Y111.81 E.33298
G1 X86.381 Y111.81 E.04891
G1 X85.965 Y111.992 F9000
G1 E-.7 F3600
;WIPE_START
G1 F7200
G1 X86.377 Y111.21 E-.285
;WIPE_END
G1 E-.015 F3600
G1 Z.4 F9000
G1 X88.444 Y112.187
G1 Z.2
G1 E1 F2400
;TYPE:Perimeter
G1 F1200
G1 X88.444 Y100.813 E.35663
G1 X90.818 Y100.813 E.07444
G1 X90.818 Y112.187 E.35663
G1 X88.504 Y112.187 E.07256
G1 X88.821 Y111.81 F9000
;TYPE:External perimeter
G1 F1200
G1 X88.821 Y101.19 E.33298
G1 X90.441 Y101.19 E.05079
G1 X90.441 Y111.81 E.33298
G1 X88.881 Y111.81 E.04891
G1 X88.465 Y111.992 F9000
G1 E-.7 F3600
;WIPE_START
G1 F7200
G1 X88.877 Y111.21 E-.285
;WIPE_END
G1 E-.015 F3600
G1 Z.4 F9000
G1 X73.318 Y124.813
G1 Z.2
G1 E1 F2400
;TYPE:Perimeter
G1 F1200
G1 X73.318 Y136.187 E.35663
G1 X70.944 Y136.187 E.07444
G1 X70.944 Y124.813 E.35663
G1 X73.258 Y124.813 E.07256
G1 X72.941 Y125.19 F9000
;TYPE:External perimeter
G1 F1200
G1 X72.941 Y135.81 E.33298
G1 X71.321 Y135.81 E.05079
G1 X71.321 Y125.19 E.33298
G1 X72.881 Y125.19 E.04891
G1 X73.297 Y125.008 F9000
G1 X73.444 Y124.813
;TYPE:Perimeter
G1 F1200
G1 X75.818 Y124.813 E.07444
G1 X75.818 Y136.187 E.35663
G1 X73.444 Y136.187 E.07444
G1 X73.444 Y124.873 E.35475
G1 X73.821 Y125.19 F9000
;TYPE:External perimeter
G1 F1200
G1 X75.441 Y125.19 E.05079
G1 X75.441 Y135.81 E.33298
G1 X73.821 Y135.81 E.05079
G1 X73.821 Y125.25 E.3311
G1 X73.8 Y124.791 F9000
G1 E-.7 F3600
;WIPE_START
G1 F7200
G1 X74.42 Y125.228 E-.285
;WIPE_END
G1 E-.015 F3600
G1 Z.4 F9000
G1 X75.944 Y124.813
G1 Z.2
G1 E1 F2400
;TYPE:Perimeter
G1 F1200
G1 X78.318 Y124.813 E.07444
G1 X78.318 Y136.187 E.35663
G1 X75.944 Y136.187 E.07444
G1 X75.944 Y124.873 E.35475
G1 X76.321 Y125.19 F9000
;TYPE:External perimeter
G1 F1200
G1 X77.941 Y125.19 E.05079
G1 X77.941 Y135.81 E.33298
G1 X76.321 Y135.81 E.05079
G1 X76.321 Y125.25 E.3311
G1 X76.3 Y124.791 F9000
G1 E-.7 F3600
;WIPE_START
G1 F7200
G1 X76.92 Y125.228 E-.285
;WIPE_END
G1 E-.015 F3600
G1 Z.4 F9000
G1 X78.444 Y124.813
G1 Z.2
G1 E1 F2400
;TYPE:Perimeter
G1 F1200
G1 X80.818 Y124.813 E.07444
G1 X80.818 Y136.187 E.35663
G1 X78.444 Y136.187 E.07444
G1 X78.444 Y124.873 E.35475
G1 X78.821 Y125.19 F9000
;TYPE:External perimeter
G1 F1200
G1 X80.441 Y125.19 E.05079
G1 X80.441 Y135.81 E.33298
G1 X78.821 Y135.81 E.05079
G1 X78.821 Y125.25 E.3311
G1 X78.8 Y124.791 F9000
G1 E-.7 F3600
;WIPE_START
G1 F7200
G1 X79.42 Y125.228 E-.285
;WIPE_END
G1 E-.015 F3600
G1 Z.4 F9000
G1 X80.944 Y124.813
G1 Z.2
G1 E1 F2400
;TYPE:Perimeter
G1 F1200
G1 X83.318 Y124.813 E.07444
G1 X83.318 Y136.187 E.35663
G1 X80.944 Y136.187 E.07444
G1 X80.944 Y124.873 E.35475
G1 X81.321 Y125.19 F9000
;TYPE:External perimeter
G1 F1200
G1 X82.941 Y125.19 E.05079
G1 X82.941 Y135.81 E.33298
G1 X81.321 Y135.81 E.05079
G1 X81.321 Y125.25 E.3311
G1 X81.3 Y124.791 F9000
G1 E-.7 F3600
;WIPE_START
G1 F7200
G1 X81.92 Y125.228 E-.285
;WIPE_END
G1 E-.015 F3600
G1 Z.4 F9000
G1 X83.444 Y124.813
G1 Z.2
G1 E1 F2400
;TYPE:Perimeter
G1 F1200
G1 X85.818 Y124.813 E.07444
G1 X85.818 Y136.187 E.35663
G1 X83.444 Y136.187 E.07444
G1 X83.444 Y124.873 E.35475
G1 X83.821 Y125.19 F9000
;TYPE:External perimeter
G1 F1200
G1 X85.441 Y125.19 E.05079
G1 X85.441 Y135.81 E.33298
G1 X83.821 Y135.81 E.05079
G1 X83.821 Y125.25 E.3311
G1 X83.8 Y124.791 F9000
G1 E-.7 F3600
;WIPE_START
G1 F7200
G1 X84.42 Y125.228 E-.285
;WIPE_END
G1 E-.015 F3600
G1 Z.4 F9000
G1 X85.944 Y124.813
G1 Z.2
G1 E1 F2400
;TYPE:Perimeter
G1 F1200
G1 X88.318 Y124.813 E.07444
G1 X88.318 Y136.187 E.35663
G1 X85.944 Y136.187 E.07444
G1 X85.944 Y124.873 E.35475
G1 X86.321 Y125.19 F9000
;TYPE:External perimeter
G1 F1200
G1 X87.941 Y125.19 E.05079
G1 X87.941 Y135.81 E.33298
G1 X86.321 Y135.81 E.05079
G1 X86.321 Y125.25 E.3311
G1 X86.3 Y124.791 F9000
G1 E-.7 F3600
;WIPE_START
G1 F7200
G1 X86.92 Y125.228 E-.285
;WIPE_END
G1 E-.015 F3600
G1 Z.4 F9000
G1 X88.444 Y124.813
G1 Z.2
G1 E1 F2400
;TYPE:Perimeter
G1 F1200
G1 X90.818 Y124.813 E.07444
G1 X90.818 Y136.187 E.35663
G1 X88.444 Y136.187 E.07444
G1 X88.444 Y124.873 E.35475
G1 X88.821 Y125.19 F9000
;TYPE:External perimeter
G1 F1200
G1 X90.441 Y125.19 E.05079
G1 X90.441 Y135.81 E.33298
G1 X88.821 Y135.81 E.05079
G1 X88.821 Y125.25 E.3311
G1 X88.8 Y124.791 F9000
G1 E-.7 F3600
;WIPE_START
G1 F7200
G1 X89.42 Y125.228 E-.285
;WIPE_END
G1 E-.015 F3600
G1 Z.4 F9000
G1 X88.444 Y136.813
G1 Z.2
G1 E1 F2400
;TYPE:Perimeter
G1 F1200
G1 X90.818 Y136.813 E.07444
G1 X90.818 Y148.187 E.35663
G1 X88.444 Y148.187 E.07444
G1 X88.444 Y136.873 E.35475
G1 X88.821 Y137.19 F9000
;TYPE:External perimeter
G1 F1200
G1 X90.441 Y137.19 E.05079
G1 X90.441 Y147.81 E.33298
G1 X88.821 Y147.81 E.05079
G1 X88.821 Y137.25 E.3311
G1 X88.8 Y136.791 F9000
G1 X88.318 Y136.813
;TYPE:Perimeter
G1 F1200
G1 X88.318 Y148.187 E.35663
G1 X85.944 Y148.187 E.07444
G1 X85.944 Y136.813 E.35663
G1 X88.258 Y136.813 E.07256
G1 X87.941 Y137.19 F9000
;TYPE:External perimeter
G1 F1200
G1 X87.941 Y147.81 E.33298
G1 X86.321 Y147.81 E.05079
G1 X86.321 Y137.19 E.33298
G1 X87.881 Y137.19 E.04891
G1 X88.297 Y137.008 F9000
G1 E-.7 F3600
;WIPE_START
G1 F7200
G1 X87.884 Y137.79 E-.285
;WIPE_END
G1 E-.015 F3600
G1 Z.4 F9000
G1 X85.818 Y136.813
G1 Z.2
G1 E1 F2400
;TYPE:Perimeter
G1 F1200
G1 X85.818 Y148.187 E.35663
G1 X83.444 Y148.187 E.07444
G1 X83.444 Y136.813 E.35663
G1 X85.758 Y136.813 E.07256
G1 X85.441 Y137.19 F9000
;TYPE:External perimeter
G1 F1200
G1 X85.441 Y147.81 E.33298
G1 X83.821 Y147.81 E.05079
G1 X83.821 Y137.19 E.33298
G1 X85.381 Y137.19 E.04891
G1 X85.797 Y137.008 F9000
G1 E-.7 F3600
;WIPE_START
G1 F7200
G1 X85.384 Y137.79 E-.285
;WIPE_END
G1 E-.015 F3600
G1 Z.4 F9000
G1 X83.318 Y136.813
G1 Z.2
G1 E1 F2400
;TYPE:Perimeter
G1 F1200
G1 X83.318 Y148.187 E.35663
G1 X80.944 Y148.187 E.07444
G1 X80.944 Y136.813 E.35663
G1 X83.258 Y136.813 E.07256
G1 X82.941 Y137.19 F9000
;TYPE:External perimeter
G1 F1200
G1 X82.941 Y147.81 E.33298
G1 X81.321 Y147.81 E.05079
G1 X81.321 Y137.19 E.33298
G1 X82.881 Y137.19 E.04891
G1 X83.297 Y137.008 F9000
G1 E-.7 F3600
;WIPE_START
G1 F7200
G1 X82.884 Y137.79 E-.285
;WIPE_END
G1 E-.015 F3600
G1 Z.4 F9000
G1 X80.818 Y136.813
G1 Z.2
G1 E1 F2400
;TYPE:Perimeter
G1 F1200
G1 X80.818 Y148.187 E.35663
G1 X78.444 Y148.187 E.07444
G1 X78.444 Y136.813 E.35663
G1 X80.758 Y136.813 E.07256
G1 X80.441 Y137.19 F9000
;TYPE:External perimeter
G1 F1200
G1 X80.441 Y147.81 E.33298
G1 X78.821 Y147.81 E.05079
G1 X78.821 Y137.19 E.33298
G1 X80.381 Y137.19 E.04891
G1 X80.797 Y137.008 F9000
G1 E-.7 F3600
;WIPE_START
G1 F7200
G1 X80.384 Y137.79 E-.285
;WIPE_END
G1 E-.015 F3600
G1 Z.4 F9000
G1 X78.318 Y136.813
G1 Z.2
G1 E1 F2400
;TYPE:Perimeter
G1 F1200
G1 X78.318 Y148.187 E.35663
G1 X75.944 Y148.187 E.07444
G1 X75.944 Y136.813 E.35663
G1 X78.258 Y136.813 E.07256
G1 X77.941 Y137.19 F9000
;TYPE:External perimeter
G1 F1200
G1 X77.941 Y147.81 E.33298
G1 X76.321 Y147.81 E.05079
G1 X76.321 Y137.19 E.33298
G1 X77.881 Y137.19 E.04891
G1 X78.297 Y137.008 F9000
G1 E-.7 F3600
;WIPE_START
G1 F7200
G1 X77.884 Y137.79 E-.285
;WIPE_END
G1 E-.015 F3600
G1 Z.4 F9000
G1 X75.818 Y136.813
G1 Z.2
G1 E1 F2400
;TYPE:Perimeter
