; generated by PrusaSlicer 2.4.1+arm64 on 2022-07-26 at 00:24:42 UTC

; 

; external perimeters extrusion width = 0.45mm
; perimeters extrusion width = 0.45mm
; infill extrusion width = 0.45mm
; solid infill extrusion width = 0.45mm
; top infill extrusion width = 0.40mm
; first layer extrusion width = 0.42mm

M107
;TYPE:Custom
G90 ; use absolute coordinates
M83 ; extruder relative mode
M140 S85 ; set final bed temp
M104 S150 ; set temporary nozzle temp to prevent oozing during homing and auto bed leveling
G4 S10 ; allow partial nozzle warmup
G28 ; home all axis
G1 Z50 F240
G1 X2 Y10 F3000
M104 S240 ; set final nozzle temp
M190 S85 ; wait for bed temp to stabilize
M109 S240 ; wait for nozzle temp to stabilize
G1 Z0.28 F240
G92 E0
G1 Y140 E10 F1500 ; prime the nozzle
G1 X2.3 F5000
G92 E0
G1 Y10 E10 F1200 ; prime the nozzle
G92 E0
G21 ; set units to millimeters
G90 ; use absolute coordinates
M83 ; use relative distances for extrusion
M900 K0.08 ; Filament gcode LA 1.5
M900 K200 ; Filament gcode LA 1.0
M107
;LAYER_CHANGE
;Z:0.2
;HEIGHT:0.2
;BEFORE_LAYER_CHANGE
G92 E0
;0.2


G1 E-1 F3600
G1 Z.2 F9000
;AFTER_LAYER_CHANGE
;0.2
G1 Z.4
G1 X58.043 Y74.006
G1 Z.2
G1 E1 F2400
M204 S500
;TYPE:Skirt/Brim
;WIDTH:0.42
G1 F1200
G1 X59.087 Y73.385 E.03806
G1 X59.935 Y73.021 E.02895
G1 X61.362 Y72.665 E.04612
G1 X62.5 Y72.572 E.03579
G1 X168.794 Y72.585 E3.33278
G1 X170.181 Y72.764 E.04383
G1 X171.512 Y73.192 E.04384
G1 X172.743 Y73.856 E.04384
G1 X173.832 Y74.732 E.04384
G1 X174.893 Y76.007 E.052
G1 X175.557 Y77.237 E.04384
G1 X175.985 Y78.568 E.04384
G1 X176.164 Y79.955 E.04383
G1 X176.177 Y155.751 E2.37653
G1 X175.783 Y157.334 E.05115
G1 X174.693 Y158.548 E.05115
G1 X172.8 Y159.128 E.06207
G1 X58.2 Y159.128 E3.5932
G1 X56.617 Y158.734 E.05115
G1 X55.403 Y157.644 E.05115
G1 X54.823 Y155.751 E.06207
G1 X54.823 Y80.249 E2.3673
G1 X55.015 Y78.568 E.05304
G1 X55.272 Y77.684 E.02887
G1 X55.636 Y76.836 E.02895
G1 X56.107 Y76.007 E.0299
G1 X56.761 Y75.163 E.03347
G1 X57.999 Y74.046 E.05228
G1 E-.7 F3600
;WIPE_START
G1 F7200
G1 X58.511 Y73.734 E-.285
;WIPE_END
G1 E-.015 F3600
G1 Z.4 F9000
G1 X161.921 Y83.961
G1 Z.2
G1 E1 F2400
;TYPE:Perimeter
G1 F1200
G1 X161.996 Y83.393 E.01795
G1 X162.205 Y82.889 E.0171
G1 X162.56 Y82.413 E.01865
G1 X163.018 Y82.062 E.01808
G1 X163.547 Y81.842 E.01795
G1 X164.087 Y81.771 E.0171
G1 X164.678 Y81.841 E.01865
G1 X165.211 Y82.062 E.01808
G1 X165.665 Y82.41 E.01795
G1 X166.013 Y82.864 E.01795
G1 X166.232 Y83.393 E.01795
G1 X166.307 Y83.961 E.01795
G1 X166.232 Y84.528 E.01795
G1 X166.013 Y85.057 E.01795
G1 X165.665 Y85.511 E.01795
G1 X165.211 Y85.86 E.01795
G1 X164.682 Y86.079 E.01795
G1 X164.114 Y86.154 E.01795
G1 X163.547 Y86.079 E.01795
G1 X163.043 Y85.87 E.0171
G1 X162.566 Y85.515 E.01865
G1 X162.215 Y85.057 E.01808
G1 X161.996 Y84.528 E.01795
G1 X161.929 Y84.02 E.01607
G1 X162.301 Y83.961 F9000
;TYPE:External perimeter
G1 F1200
G1 X162.363 Y83.492 E.01484
G1 X162.535 Y83.077 E.01407
G1 X162.831 Y82.68 E.01553
G1 X163.208 Y82.391 E.01488
G1 X163.645 Y82.21 E.01484
G1 X164.09 Y82.151 E.01407
G1 X164.582 Y82.209 E.01553
G1 X165.021 Y82.391 E.01488
G1 X165.396 Y82.679 E.01484
G1 X165.684 Y83.054 E.01484
G1 X165.865 Y83.492 E.01484
G1 X165.927 Y83.961 E.01484
G1 X165.865 Y84.43 E.01484
G1 X165.684 Y84.867 E.01484
G1 X165.396 Y85.243 E.01484
G1 X165.02 Y85.531 E.01484
G1 X164.583 Y85.712 E.01484
G1 X164.114 Y85.773 E.01484
G1 X163.645 Y85.712 E.01484
G1 X163.23 Y85.54 E.01407
G1 X162.833 Y85.244 E.01553
G1 X162.544 Y84.867 E.01488
G1 X162.363 Y84.43 E.01484
G1 X162.309 Y84.02 E.01296
G1 X161.955 Y83.761 F9000
G1 E-.7 F3600
;WIPE_START
G1 F7200
G1 X162.363 Y83.492 E-.25241
G1 X162.39 Y83.428 E-.03259
;WIPE_END
G1 E-.015 F3600
G1 Z.4 F9000
G1 X164.046 Y149.322
G1 Z.2
G1 E1 F2400
;TYPE:Perimeter
G1 F1200
G1 X164.692 Y149.383 E.02035
G1 X165.226 Y149.604 E.01813
G1 X165.681 Y149.953 E.01795
G1 X166.029 Y150.407 E.01795
G1 X166.233 Y150.901 E.01675
G1 X166.324 Y151.498 E.01894
G1 X166.248 Y152.071 E.01813
G1 X166.029 Y152.6 E.01795
G1 X165.681 Y153.054 E.01795
G1 X165.226 Y153.403 E.01795
G1 X164.697 Y153.622 E.01795
G1 X164.13 Y153.697 E.01795
G1 X163.562 Y153.622 E.01795
G1 X163.033 Y153.403 E.01795
G1 X162.579 Y153.054 E.01795
G1 X162.231 Y152.6 E.01795
G1 X162.012 Y152.071 E.01795
G1 X161.937 Y151.504 E.01795
G1 X162.012 Y150.936 E.01795
G1 X162.231 Y150.407 E.01795
G1 X162.579 Y149.953 E.01795
G1 X163.033 Y149.604 E.01795
G1 X163.562 Y149.385 E.01795
G1 X163.987 Y149.329 E.01342
G1 X164.095 Y149.695 F9000
;TYPE:External perimeter
G1 F1200
G1 X164.597 Y149.752 E.01583
G1 X165.036 Y149.934 E.0149
G1 X165.412 Y150.222 E.01484
G1 X165.7 Y150.597 E.01484
G1 X165.867 Y151.002 E.01375
G1 X165.943 Y151.502 E.01583
G1 X165.881 Y151.973 E.0149
G1 X165.7 Y152.41 E.01484
G1 X165.412 Y152.785 E.01484
G1 X165.036 Y153.073 E.01484
G1 X164.599 Y153.254 E.01484
G1 X164.13 Y153.316 E.01484
G1 X163.661 Y153.254 E.01484
G1 X163.224 Y153.073 E.01484
G1 X162.848 Y152.785 E.01484
G1 X162.56 Y152.41 E.01484
G1 X162.379 Y151.973 E.01484
G1 X162.317 Y151.504 E.01484
G1 X162.379 Y151.034 E.01484
G1 X162.56 Y150.597 E.01484
G1 X162.848 Y150.222 E.01484
G1 X163.224 Y149.934 E.01484
G1 X163.661 Y149.753 E.01484
G1 X164.036 Y149.703 E.01187
G1 X164.29 Y149.346 F9000
G1 E-.7 F3600
;WIPE_START
G1 F7200
G1 X164.597 Y149.752 E-.26759
G1 X164.631 Y149.766 E-.01741
;WIPE_END
G1 E-.015 F3600
G1 Z.4 F9000
G1 X69.021 Y151.514
G1 Z.2
G1 E1 F2400
;TYPE:Perimeter
G1 F1200
G1 X68.946 Y152.081 E.01795
G1 X68.742 Y152.575 E.01675
G1 X68.383 Y153.061 E.01894
G1 X67.924 Y153.413 E.01813
G1 X67.395 Y153.632 E.01795
G1 X66.828 Y153.707 E.01795
G1 X66.26 Y153.632 E.01795
G1 X65.731 Y153.413 E.01795
G1 X65.277 Y153.064 E.01795
G1 X64.929 Y152.61 E.01795
G1 X64.709 Y152.081 E.01795
G1 X64.635 Y151.514 E.01795
G1 X64.709 Y150.946 E.01795
G1 X64.914 Y150.453 E.01675
G1 X65.273 Y149.967 E.01894
G1 X65.731 Y149.615 E.01813
G1 X66.26 Y149.395 E.01795
G1 X66.79 Y149.326 E.01675
G1 X67.39 Y149.393 E.01894
G1 X67.924 Y149.615 E.01813
G1 X68.378 Y149.963 E.01795
G1 X68.727 Y150.417 E.01795
G1 X68.946 Y150.946 E.01795
G1 X69.013 Y151.454 E.01607
G1 X68.64 Y151.514 F9000
;TYPE:External perimeter
G1 F1200
G1 X68.579 Y151.983 E.01484
G1 X68.411 Y152.388 E.01375
G1 X68.111 Y152.794 E.01583
G1 X67.734 Y153.084 E.0149
G1 X67.297 Y153.265 E.01484
G1 X66.828 Y153.326 E.01484
G1 X66.359 Y153.265 E.01484
G1 X65.921 Y153.084 E.01484
G1 X65.546 Y152.796 E.01484
G1 X65.258 Y152.42 E.01484
G1 X65.077 Y151.983 E.01484
G1 X65.015 Y151.514 E.01484
G1 X65.077 Y151.045 E.01484
G1 X65.245 Y150.64 E.01375
G1 X65.544 Y150.233 E.01583
G1 X65.921 Y149.944 E.0149
G1 X66.359 Y149.763 E.01484
G1 X66.793 Y149.706 E.01375
G1 X67.295 Y149.762 E.01583
G1 X67.734 Y149.944 E.0149
G1 X68.11 Y150.232 E.01484
G1 X68.398 Y150.607 E.01484
G1 X68.579 Y151.045 E.01484
G1 X68.633 Y151.454 E.01296
G1 X68.987 Y151.714 F9000
G1 E-.7 F3600
;WIPE_START
G1 F7200
G1 X68.579 Y151.983 E-.25241
G1 X68.552 Y152.046 E-.03259
;WIPE_END
G1 E-.015 F3600
G1 Z.4 F9000
G1 X66.819 Y86.165
G1 Z.2
G1 E1 F2400
;TYPE:Perimeter
G1 F1200
G1 X66.251 Y86.09 E.01795
G1 X65.747 Y85.881 E.0171
G1 X65.271 Y85.526 E.01865
G1 X64.92 Y85.068 E.01808
G1 X64.711 Y84.564 E.0171
G1 X64.625 Y83.976 E.01865
G1 X64.701 Y83.404 E.01808
G1 X64.92 Y82.875 E.01795
G1 X65.268 Y82.421 E.01795
G1 X65.723 Y82.072 E.01795
G1 X66.251 Y81.853 E.01795
G1 X66.792 Y81.782 E.0171
G1 X67.383 Y81.852 E.01865
G1 X67.916 Y82.072 E.01808
G1 X68.37 Y82.421 E.01795
G1 X68.718 Y82.875 E.01795
G1 X68.937 Y83.404 E.01795
G1 X69.012 Y83.972 E.01795
G1 X68.937 Y84.539 E.01795
G1 X68.729 Y85.043 E.0171
G1 X68.373 Y85.52 E.01865
G1 X67.916 Y85.871 E.01808
G1 X67.387 Y86.09 E.01795
G1 X66.879 Y86.157 E.01607
G1 X66.819 Y85.784 F9000
;TYPE:External perimeter
G1 F1200
G1 X66.35 Y85.723 E.01484
G1 X65.935 Y85.551 E.01407
G1 X65.538 Y85.255 E.01553
G1 X65.249 Y84.878 E.01488
G1 X65.077 Y84.463 E.01407
G1 X65.006 Y83.973 E.01553
G1 X65.068 Y83.502 E.01488
G1 X65.249 Y83.065 E.01484
G1 X65.537 Y82.69 E.01484
G1 X65.913 Y82.402 E.01484
G1 X66.35 Y82.221 E.01484
G1 X66.795 Y82.162 E.01407
G1 X67.287 Y82.22 E.01553
G1 X67.725 Y82.402 E.01488
G1 X68.101 Y82.69 E.01484
G1 X68.389 Y83.065 E.01484
G1 X68.57 Y83.502 E.01484
G1 X68.632 Y83.972 E.01484
G1 X68.57 Y84.441 E.01484
G1 X68.398 Y84.855 E.01407
G1 X68.102 Y85.253 E.01553
G1 X67.725 Y85.541 E.01488
G1 X67.288 Y85.723 E.01484
G1 X66.879 Y85.776 E.01296
G1 X66.619 Y86.131 F9000
G1 E-.7 F3600
;WIPE_START
G1 F7200
G1 X66.35 Y85.723 E-.25241
G1 X66.286 Y85.696 E-.03259
;WIPE_END
G1 E-.015 F3600
G1 Z.4 F9000
G1 X164.817 Y153.895
G1 Z.2
G1 E1 F2400
;TYPE:Perimeter
G1 F1200
G1 X163.578 Y153.744 E.03915
G1 X163.057 Y153.547 E.01744
G1 X162.601 Y153.232 E.01737
G1 X162.22 Y152.795 E.01818
G1 X161.972 Y152.322 E.01677
G1 X161.839 Y151.782 E.01744
G1 X161.839 Y151.225 E.01744
G1 X161.972 Y150.685 E.01744
G1 X162.231 Y150.193 E.01744
G1 X162.599 Y149.776 E.01744
G1 X163.057 Y149.46 E.01744
G1 X163.578 Y149.263 E.01744
G1 X164.171 Y149.191 E.01876
G1 X167.539 Y149.191 E.10558
G1 X168.321 Y149.102 E.0247
G1 X169.102 Y148.829 E.02592
G1 X169.802 Y148.39 E.02592
G1 X170.386 Y147.805 E.02592
G1 X170.826 Y147.105 E.02592
G1 X171.099 Y146.325 E.02592
G1 X171.187 Y145.542 E.0247
G1 X171.187 Y89.922 E1.74392
G1 X171.099 Y89.139 E.0247
G1 X170.826 Y88.359 E.02592
G1 X170.386 Y87.659 E.02592
G1 X169.802 Y87.075 E.02592
G1 X169.102 Y86.635 E.02592
G1 X168.321 Y86.362 E.02592
G1 X167.539 Y86.274 E.0247
G1 X164.153 Y86.274 E.10616
G1 X163.6 Y86.211 E.01743
G1 X163.113 Y86.041 E.01621
G1 X162.675 Y85.766 E.01621
G1 X162.309 Y85.4 E.01621
G1 X162.034 Y84.962 E.01621
G1 X161.863 Y84.474 E.01621
G1 X161.801 Y83.922 E.01743
G1 X161.801 Y81.211 E.08502
G1 X161.713 Y80.428 E.0247
G1 X161.44 Y79.648 E.02592
G1 X161 Y78.948 E.02592
G1 X160.416 Y78.363 E.02592
G1 X159.716 Y77.923 E.02592
G1 X158.936 Y77.65 E.02592
G1 X158.153 Y77.562 E.0247
G1 X72.78 Y77.562 E2.67679
G1 X71.998 Y77.65 E.0247
G1 X71.217 Y77.923 E.02592
G1 X70.517 Y78.363 E.02592
G1 X69.933 Y78.948 E.02592
G1 X69.493 Y79.648 E.02592
G1 X69.22 Y80.428 E.02592
G1 X69.132 Y81.211 E.0247
G1 X69.132 Y83.933 E.08536
G1 X69.07 Y84.485 E.01743
G1 X68.899 Y84.973 E.01621
G1 X68.624 Y85.411 E.01621
G1 X68.258 Y85.777 E.01621
G1 X67.821 Y86.052 E.01621
G1 X67.333 Y86.222 E.01621
G1 X66.78 Y86.285 E.01743
G1 X63.461 Y86.285 E.10407
G1 X62.679 Y86.373 E.0247
G1 X61.898 Y86.646 E.02592
G1 X61.198 Y87.086 E.02592
G1 X60.614 Y87.67 E.02592
G1 X60.174 Y88.37 E.02592
G1 X59.901 Y89.15 E.02592
G1 X59.813 Y89.933 E.0247
G1 X59.813 Y145.552 E1.7439
G1 X59.901 Y146.335 E.0247
G1 X60.174 Y147.115 E.02592
G1 X60.614 Y147.815 E.02592
G1 X61.198 Y148.4 E.02592
G1 X61.898 Y148.84 E.02592
G1 X62.679 Y149.113 E.02592
G1 X63.461 Y149.201 E.0247
G1 X66.786 Y149.201 E.10425
G1 X67.38 Y149.273 E.01876
G1 X67.9 Y149.47 E.01744
G1 X68.356 Y149.785 E.01737
G1 X68.737 Y150.222 E.01818
G1 X68.986 Y150.695 E.01677
G1 X69.119 Y151.236 E.01744
G1 X69.119 Y151.792 E.01744
G1 X68.986 Y152.332 E.01744
G1 X68.727 Y152.825 E.01744
G1 X68.358 Y153.241 E.01744
G1 X67.9 Y153.557 E.01744
G1 X67.38 Y153.755 E.01744
G1 X66.141 Y153.905 E.03915
G1 X66.141 Y155.064 E.03633
G1 X59.087 Y155.064 E.22116
G1 X59.087 Y80.282 E2.34473
G1 X59.154 Y79.596 E.02162
G1 X59.374 Y78.895 E.02304
G1 X59.651 Y78.377 E.01839
G1 X60.066 Y77.863 E.02074
G1 X60.571 Y77.441 E.02063
G1 X61.214 Y77.092 E.02293
G1 X61.843 Y76.903 E.02058
G1 X62.533 Y76.836 E.02174
G1 X168.549 Y76.843 E3.32405
G1 X169.157 Y76.903 E.01917
G1 X169.789 Y77.093 E.0207
G1 X170.371 Y77.399 E.0206
G1 X170.935 Y77.865 E.02294
G1 X171.348 Y78.376 E.02061
G1 X171.656 Y78.96 E.02069
G1 X171.846 Y79.592 E.02069
G1 X171.913 Y80.282 E.02175
G1 X171.913 Y155.064 E2.34473
G1 X164.817 Y155.064 E.22249
G1 X164.817 Y153.955 E.03477
G1 X164.44 Y154.229 F9000
;TYPE:External perimeter
G1 F1200
G1 X163.487 Y154.113 E.03011
G1 X162.881 Y153.883 E.02032
G1 X162.348 Y153.516 E.02029
G1 X161.907 Y153.01 E.02105
G1 X161.617 Y152.457 E.01959
G1 X161.462 Y151.828 E.02032
G1 X161.462 Y151.18 E.02032
G1 X161.617 Y150.55 E.02032
G1 X161.918 Y149.977 E.02032
G1 X162.348 Y149.492 E.02032
G1 X162.881 Y149.124 E.02032
G1 X163.487 Y148.894 E.02032
G1 X164.149 Y148.814 E.02091
G1 X167.517 Y148.814 E.10563
G1 X168.237 Y148.732 E.0227
G1 X168.937 Y148.488 E.02325
G1 X169.565 Y148.093 E.02325
G1 X170.089 Y147.569 E.02325
G1 X170.484 Y146.941 E.02325
G1 X170.729 Y146.241 E.02325
G1 X170.81 Y145.521 E.0227
G1 X170.81 Y89.943 E1.7426
G1 X170.729 Y89.224 E.0227
G1 X170.484 Y88.524 E.02325
G1 X170.089 Y87.896 E.02325
G1 X169.565 Y87.371 E.02325
G1 X168.937 Y86.977 E.02325
G1 X168.237 Y86.732 E.02325
G1 X167.517 Y86.651 E.0227
G1 X164.132 Y86.651 E.10616
G1 X163.516 Y86.581 E.01942
G1 X162.948 Y86.383 E.01887
G1 X162.438 Y86.062 E.01887
G1 X162.013 Y85.637 E.01887
G1 X161.692 Y85.127 E.01887
G1 X161.494 Y84.559 E.01887
G1 X161.424 Y83.943 E.01942
G1 X161.424 Y81.232 E.08502
G1 X161.343 Y80.512 E.0227
G1 X161.098 Y79.812 E.02325
G1 X160.704 Y79.184 E.02325
G1 X160.179 Y78.66 E.02325
G1 X159.551 Y78.265 E.02325
G1 X158.851 Y78.02 E.02325
G1 X158.132 Y77.939 E.0227
G1 X72.802 Y77.939 E2.67546
G1 X72.082 Y78.02 E.0227
G1 X71.382 Y78.265 E.02325
G1 X70.754 Y78.66 E.02325
G1 X70.23 Y79.184 E.02325
G1 X69.835 Y79.812 E.02325
G1 X69.59 Y80.512 E.02325
G1 X69.509 Y81.232 E.0227
G1 X69.509 Y83.954 E.08536
G1 X69.44 Y84.57 E.01942
G1 X69.241 Y85.138 E.01887
G1 X68.921 Y85.648 E.01887
G1 X68.495 Y86.073 E.01887
G1 X67.985 Y86.393 E.01887
G1 X67.417 Y86.592 E.01887
G1 X66.802 Y86.662 E.01942
G1 X63.483 Y86.662 E.10407
G1 X62.763 Y86.743 E.0227
G1 X62.063 Y86.988 E.02325
G1 X61.435 Y87.382 E.02325
G1 X60.911 Y87.907 E.02325
G1 X60.516 Y88.535 E.02325
G1 X60.271 Y89.235 E.02325
G1 X60.19 Y89.954 E.0227
G1 X60.19 Y145.531 E1.74258
G1 X60.271 Y146.251 E.0227
G1 X60.516 Y146.951 E.02325
G1 X60.911 Y147.579 E.02325
G1 X61.435 Y148.103 E.02325
G1 X62.063 Y148.498 E.02325
G1 X62.763 Y148.743 E.02325
G1 X63.483 Y148.824 E.0227
G1 X66.809 Y148.824 E.1043
G1 X67.471 Y148.904 E.02091
G1 X68.077 Y149.134 E.02032
G1 X68.609 Y149.502 E.02029
G1 X69.051 Y150.007 E.02105
G1 X69.341 Y150.561 E.01959
G1 X69.496 Y151.19 E.02032
G1 X69.496 Y151.838 E.02032
G1 X69.341 Y152.467 E.02032
G1 X69.04 Y153.041 E.02032
G1 X68.61 Y153.526 E.02032
G1 X68.077 Y153.894 E.02032
G1 X67.471 Y154.123 E.02032
G1 X66.518 Y154.239 E.03011
G1 X66.518 Y155.441 E.03768
G1 X58.71 Y155.441 E.24481
G1 X58.71 Y80.264 E2.35712
G1 X58.782 Y79.52 E.02343
G1 X59.025 Y78.748 E.02538
G1 X59.335 Y78.168 E.02061
G1 X59.796 Y77.597 E.02301
G1 X60.358 Y77.127 E.02297
G1 X61.068 Y76.742 E.02534
G1 X61.77 Y76.532 E.02296
G1 X62.515 Y76.459 E.02347
G1 X168.567 Y76.466 E3.32521
G1 X169.23 Y76.532 E.02089
G1 X169.933 Y76.742 E.023
G1 X170.581 Y77.084 E.02296
G1 X171.204 Y77.598 E.02534
G1 X171.665 Y78.168 E.02296
G1 X172.007 Y78.816 E.02299
G1 X172.217 Y79.519 E.02299
G1 X172.29 Y80.264 E.02347
G1 X172.29 Y155.441 E2.35712
G1 X164.44 Y155.441 E.24614
G1 X164.44 Y154.289 E.03612
G1 X164.287 Y153.859 F9000
G1 E-.7 F3600
;WIPE_START
G1 F7200
G1 X163.85 Y154.18 E-.285
;WIPE_END
G1 E-.015 F3600
G1 Z.4 F9000
G1 X165.626 Y149.489
G1 Z.2
G1 E1 F2400
;TYPE:Gap fill
;WIDTH:0.110391
G1 F1200
G1 X165.333 Y149.411 E.0017
;WIDTH:0.105815
G1 X165.277 Y149.399 E.0003
G1 E-.7 F3600
;WIPE_START
G1 F7200
G1 X165.333 Y149.411 E-.02718
;WIPE_END
G1 E-.27282 F3600
G1 Z.4 F9000
G1 X171.8 Y146.51
G1 Z.2
G1 E1 F2400
;TYPE:Solid infill
;WIDTH:0.423725
G1 F1200
G1 X171.407 Y146.117 E.0176
G1 X171.376 Y146.388 E.00865
G1 X171.315 Y146.564 E.00588
G1 X171.63 Y146.879 E.01411
G1 X171.63 Y147.417 E.01705
G1 X171.175 Y146.962 E.02036
G1 X171.082 Y147.229 E.00893
G1 X171.013 Y147.339 E.00412
G1 X171.63 Y147.956 E.02763
G1 X171.63 Y148.494 E.01705
G1 X170.805 Y147.669 E.03694
G1 X170.594 Y147.997 E.01234
G1 X171.63 Y149.033 E.04639
G1 X171.63 Y149.571 E.01705
G1 X170.325 Y148.266 E.05845
G1 X170.056 Y148.535 E.01206
G1 X171.63 Y150.11 E.0705
G1 X171.63 Y150.648 E.01705
G1 X169.742 Y148.761 E.08453
G1 X169.412 Y148.969 E.01237
