; generated by PrusaSlicer 2.4.1+arm64 on 2022-07-25 at 14:31:42 UTC

; 

; external perimeters extrusion width = 0.45mm
; perimeters extrusion width = 0.45mm
; infill extrusion width = 0.45mm
; solid infill extrusion width = 0.45mm
; top infill extrusion width = 0.40mm
; first layer extrusion width = 0.42mm

M107
;TYPE:Custom
G90 ; use absolute coordinates
M83 ; extruder relative mode
M140 S85 ; set final bed temp
M104 S150 ; set temporary nozzle temp to prevent oozing during homing and auto bed leveling
G4 S10 ; allow partial nozzle warmup
G28 ; home all axis
G1 Z50 F240
G1 X2 Y10 F3000
M104 S240 ; set final nozzle temp
M190 S85 ; wait for bed temp to stabilize
M109 S240 ; wait for nozzle temp to stabilize
G1 Z0.28 F240
G92 E0
G1 Y140 E10 F1500 ; prime the nozzle
G1 X2.3 F5000
G92 E0
G1 Y10 E10 F1200 ; prime the nozzle
G92 E0
G21 ; set units to millimeters
G90 ; use absolute coordinates
M83 ; use relative distances for extrusion
M900 K0.08 ; Filament gcode LA 1.5
M900 K200 ; Filament gcode LA 1.0
M107
;LAYER_CHANGE
;Z:0.2
;HEIGHT:0.2
;BEFORE_LAYER_CHANGE
G92 E0
;0.2


G1 E-1 F3600
G1 Z.2 F9000
;AFTER_LAYER_CHANGE
;0.2
G1 Z.4
G1 X56.204 Y35.992
G1 Z.2
G1 E1 F2400
M204 S500
;TYPE:Skirt/Brim
;WIDTH:0.42
G1 F1200
G1 X56.862 Y35.173 E.03293
G1 X57.551 Y34.507 E.03004
G1 X58.124 Y34.072 E.02257
G1 X59.119 Y33.481 E.03629
G1 X60.604 Y32.935 E.0496
G1 X62.5 Y32.691 E.05994
G1 X168.831 Y32.707 E3.33394
G1 X170.396 Y32.935 E.04959
G1 X171.881 Y33.481 E.0496
G1 X173.222 Y34.321 E.04961
G1 X174.138 Y35.173 E.03924
G1 X174.796 Y35.992 E.03293
G1 X175.596 Y37.463 E.05252
G1 X176.057 Y39.074 E.05252
G1 X176.177 Y40.368 E.04074
G1 X176.177 Y186.368 E4.57773
G1 X176.057 Y187.662 E.04074
G1 X175.847 Y188.545 E.02847
G1 X175.387 Y189.749 E.0404
G1 X174.796 Y190.744 E.03629
G1 X174.36 Y191.317 E.02257
G1 X173.561 Y192.132 E.03579
G1 X168.314 Y196.812 E.22047
G1 X167.539 Y197.354 E.02964
G1 X166.428 Y197.87 E.0384
G1 X165.349 Y198.175 E.03516
G1 X164.523 Y198.276 E.02609
G1 X66.828 Y198.309 E3.06316
G1 X65.606 Y198.185 E.03851
G1 X64.868 Y198.005 E.02382
G1 X63.413 Y197.361 E.04989
G1 X62.35 Y196.584 E.04129
G1 X57.425 Y192.119 E.20843
G1 X56.453 Y191.089 E.04441
G1 X55.613 Y189.749 E.0496
G1 X55.197 Y188.68 E.03595
G1 X54.943 Y187.662 E.03292
G1 X54.823 Y186.368 E.04074
G1 X54.823 Y40.368 E4.57773
G1 X54.943 Y39.074 E.04074
G1 X55.153 Y38.19 E.02847
G1 X55.613 Y36.987 E.0404
G1 X56.174 Y36.043 E.03441
G1 E-.7 F3600
;WIPE_START
G1 F7200
G1 X56.546 Y35.573 E-.285
;WIPE_END
G1 E-.015 F3600
G1 Z.4 F9000
G1 X127.813 Y111.182
G1 Z.2
G1 E1 F2400
;TYPE:Perimeter
G1 F1200
G1 X144.187 Y111.182 E.5134
G1 X144.187 Y115.556 E.13715
G1 X127.813 Y115.556 E.5134
G1 X127.813 Y111.242 E.13527
G1 X128.19 Y111.559 F9000
;TYPE:External perimeter
G1 F1200
G1 X143.81 Y111.559 E.48975
G1 X143.81 Y115.179 E.1135
G1 X128.19 Y115.179 E.48975
G1 X128.19 Y111.619 E.11162
G1 X128.017 Y111.199 F9000
G1 E-.7 F3600
;WIPE_START
G1 F7200
G1 X128.79 Y111.617 E-.285
;WIPE_END
G1 E-.015 F3600
G1 Z.4 F9000
G1 X161.937 Y111.622
G1 Z.2
G1 E1 F2400
;TYPE:Perimeter
G1 F1200
G1 X162.012 Y111.054 E.01795
G1 X162.231 Y110.526 E.01795
G1 X162.579 Y110.071 E.01795
G1 X163.033 Y109.723 E.01795
G1 X163.562 Y109.504 E.01795
G1 X164.104 Y109.432 E.01714
G1 X164.694 Y109.502 E.01862
G1 X165.226 Y109.723 E.01807
G1 X165.681 Y110.071 E.01795
G1 X166.029 Y110.526 E.01795
G1 X166.238 Y111.031 E.01714
G1 X166.323 Y111.618 E.01862
G1 X166.248 Y112.19 E.01807
G1 X166.029 Y112.719 E.01795
G1 X165.681 Y113.173 E.01795
G1 X165.226 Y113.521 E.01795
G1 X164.697 Y113.74 E.01795
G1 X164.13 Y113.815 E.01795
G1 X163.562 Y113.74 E.01795
G1 X163.033 Y113.521 E.01795
G1 X162.579 Y113.173 E.01795
G1 X162.231 Y112.719 E.01795
G1 X162.012 Y112.19 E.01795
G1 X161.945 Y111.682 E.01607
G1 X162.317 Y111.622 F9000
;TYPE:External perimeter
G1 F1200
G1 X162.379 Y111.153 E.01484
G1 X162.56 Y110.716 E.01484
G1 X162.848 Y110.34 E.01484
G1 X163.224 Y110.052 E.01484
G1 X163.661 Y109.871 E.01484
G1 X164.107 Y109.812 E.0141
G1 X164.598 Y109.871 E.01551
G1 X165.036 Y110.052 E.01488
G1 X165.412 Y110.34 E.01484
G1 X165.7 Y110.716 E.01484
G1 X165.872 Y111.131 E.0141
G1 X165.943 Y111.621 E.01551
G1 X165.881 Y112.091 E.01488
G1 X165.7 Y112.528 E.01484
G1 X165.412 Y112.904 E.01484
G1 X165.036 Y113.192 E.01484
G1 X164.599 Y113.373 E.01484
G1 X164.13 Y113.435 E.01484
G1 X163.661 Y113.373 E.01484
G1 X163.224 Y113.192 E.01484
G1 X162.848 Y112.904 E.01484
G1 X162.56 Y112.528 E.01484
G1 X162.379 Y112.091 E.01484
G1 X162.325 Y111.682 E.01296
G1 X161.971 Y111.422 F9000
G1 E-.7 F3600
;WIPE_START
G1 F7200
G1 X162.379 Y111.153 E-.25241
G1 X162.405 Y111.09 E-.03259
;WIPE_END
G1 E-.015 F3600
G1 Z.4 F9000
G1 X164.466 Y119.615
G1 Z.2
G1 E1 F2400
;TYPE:Perimeter
G1 F1200
G1 X165.057 Y119.538 E.0187
G1 X165.726 Y119.613 E.02109
G1 X166.32 Y119.859 E.02017
G1 X166.826 Y120.248 E.02
G1 X167.214 Y120.754 E.02
G1 X167.458 Y121.343 E.02
G1 X167.541 Y121.975 E.02
G1 X167.458 Y122.607 E.02
G1 X167.214 Y123.197 E.02
G1 X166.826 Y123.703 E.02
G1 X166.32 Y124.091 E.02
G1 X165.73 Y124.335 E.02
G1 X165.098 Y124.418 E.02
G1 X164.466 Y124.335 E.02
G1 X163.877 Y124.091 E.02
G1 X163.371 Y123.703 E.02
G1 X162.982 Y123.197 E.02
G1 X162.738 Y122.607 E.02
G1 X162.655 Y121.975 E.02
G1 X162.738 Y121.343 E.02
G1 X162.967 Y120.792 E.0187
G1 X163.366 Y120.251 E.02109
G1 X163.877 Y119.859 E.02016
G1 X164.41 Y119.638 E.01811
G1 X164.564 Y119.983 F9000
;TYPE:External perimeter
G1 F1200
G1 X165.061 Y119.917 E.01569
G1 X165.63 Y119.982 E.01798
G1 X166.13 Y120.189 E.01694
G1 X166.557 Y120.517 E.01688
G1 X166.885 Y120.944 E.01688
G1 X167.091 Y121.441 E.01688
G1 X167.161 Y121.975 E.01688
G1 X167.091 Y122.509 E.01688
G1 X166.885 Y123.007 E.01688
G1 X166.557 Y123.434 E.01688
G1 X166.13 Y123.762 E.01688
G1 X165.632 Y123.968 E.01688
G1 X165.098 Y124.038 E.01688
G1 X164.564 Y123.968 E.01688
G1 X164.067 Y123.762 E.01688
G1 X163.64 Y123.434 E.01688
G1 X163.312 Y123.007 E.01688
G1 X163.106 Y122.509 E.01688
G1 X163.036 Y121.975 E.01688
G1 X163.106 Y121.441 E.01688
G1 X163.297 Y120.979 E.01569
G1 X163.638 Y120.518 E.01798
G1 X164.067 Y120.189 E.01694
G1 X164.509 Y120.006 E.015
G1 X164.668 Y119.596 F9000
G1 E-.7 F3600
;WIPE_START
G1 F7200
G1 X165.061 Y119.917 E-.26539
G1 X165.102 Y119.922 E-.01961
;WIPE_END
G1 E-.015 F3600
G1 Z.4 F9000
G1 X165.011 Y181.344
G1 Z.2
G1 E1 F2400
;TYPE:Perimeter
G1 F1200
G1 X165.726 Y181.413 E.0225
G1 X166.32 Y181.659 E.02016
G1 X166.826 Y182.048 E.02
G1 X167.214 Y182.554 E.02
G1 X167.458 Y183.143 E.02
G1 X167.541 Y183.775 E.02
G1 X167.458 Y184.407 E.02
G1 X167.23 Y184.958 E.0187
G1 X166.83 Y185.499 E.02109
G1 X166.32 Y185.891 E.02016
G1 X165.73 Y186.135 E.02
G1 X165.098 Y186.218 E.02
G1 X164.466 Y186.135 E.02
G1 X163.877 Y185.891 E.02
G1 X163.371 Y185.503 E.02
G1 X162.982 Y184.997 E.02
G1 X162.738 Y184.407 E.02
G1 X162.655 Y183.775 E.02
G1 X162.738 Y183.143 E.02
G1 X162.982 Y182.554 E.02
G1 X163.371 Y182.048 E.02
G1 X163.877 Y181.659 E.02
G1 X164.466 Y181.415 E.02
G1 X164.952 Y181.351 E.01537
G1 X165.061 Y181.717 F9000
;TYPE:External perimeter
G1 F1200
G1 X165.63 Y181.782 E.01798
G1 X166.13 Y181.989 E.01694
G1 X166.557 Y182.317 E.01688
G1 X166.885 Y182.744 E.01688
G1 X167.091 Y183.241 E.01688
G1 X167.161 Y183.775 E.01688
G1 X167.091 Y184.309 E.01688
G1 X166.899 Y184.771 E.01569
G1 X166.558 Y185.233 E.01798
G1 X166.13 Y185.562 E.01694
G1 X165.632 Y185.768 E.01688
G1 X165.098 Y185.838 E.01688
G1 X164.564 Y185.768 E.01688
G1 X164.067 Y185.562 E.01688
G1 X163.64 Y185.234 E.01688
G1 X163.312 Y184.807 E.01688
G1 X163.106 Y184.309 E.01688
G1 X163.036 Y183.775 E.01688
G1 X163.106 Y183.241 E.01688
G1 X163.312 Y182.744 E.01688
G1 X163.64 Y182.317 E.01688
G1 X164.067 Y181.989 E.01688
G1 X164.564 Y181.783 E.01688
G1 X165.001 Y181.725 E.01381
G1 X165.256 Y181.368 F9000
G1 E-.7 F3600
;WIPE_START
G1 F7200
G1 X165.599 Y181.779 E-.285
;WIPE_END
G1 E-.015 F3600
G1 Z.4 F9000
G1 X164.059 Y189.438
G1 Z.2
G1 E1 F2400
;TYPE:Perimeter
G1 F1200
G1 X164.694 Y189.502 E.02002
G1 X165.226 Y189.723 E.01806
G1 X165.681 Y190.071 E.01795
G1 X166.029 Y190.526 E.01795
G1 X166.248 Y191.054 E.01795
G1 X166.323 Y191.622 E.01795
G1 X166.248 Y192.19 E.01795
G1 X166.029 Y192.719 E.01795
G1 X165.681 Y193.173 E.01795
G1 X165.226 Y193.521 E.01795
G1 X164.697 Y193.74 E.01795
G1 X164.13 Y193.815 E.01795
G1 X163.562 Y193.74 E.01795
G1 X163.033 Y193.521 E.01795
G1 X162.579 Y193.173 E.01795
G1 X162.231 Y192.719 E.01795
G1 X162.012 Y192.19 E.01795
G1 X161.937 Y191.622 E.01795
G1 X162.012 Y191.054 E.01795
G1 X162.231 Y190.526 E.01795
G1 X162.579 Y190.071 E.01795
G1 X163.033 Y189.723 E.01795
G1 X163.562 Y189.504 E.01795
G1 X163.999 Y189.446 E.01382
G1 X164.108 Y189.812 F9000
;TYPE:External perimeter
G1 F1200
G1 X164.598 Y189.871 E.01546
G1 X165.036 Y190.052 E.01488
G1 X165.412 Y190.34 E.01484
G1 X165.7 Y190.716 E.01484
G1 X165.881 Y191.153 E.01484
G1 X165.943 Y191.622 E.01484
G1 X165.881 Y192.091 E.01484
G1 X165.7 Y192.528 E.01484
G1 X165.412 Y192.904 E.01484
G1 X165.036 Y193.192 E.01484
G1 X164.599 Y193.373 E.01484
G1 X164.13 Y193.435 E.01484
G1 X163.661 Y193.373 E.01484
G1 X163.224 Y193.192 E.01484
G1 X162.848 Y192.904 E.01484
G1 X162.56 Y192.528 E.01484
G1 X162.379 Y192.091 E.01484
G1 X162.317 Y191.622 E.01484
G1 X162.379 Y191.153 E.01484
G1 X162.56 Y190.716 E.01484
G1 X162.848 Y190.34 E.01484
G1 X163.224 Y190.052 E.01484
G1 X163.661 Y189.871 E.01484
G1 X164.049 Y189.82 E.01227
G1 X164.305 Y189.464 F9000
G1 E-.7 F3600
;WIPE_START
G1 F7200
G1 X164.598 Y189.871 E-.26196
G1 X164.643 Y189.889 E-.02304
;WIPE_END
G1 E-.015 F3600
G1 Z.4 F9000
G1 X69.021 Y191.632
G1 Z.2
G1 E1 F2400
;TYPE:Perimeter
G1 F1200
G1 X68.946 Y192.2 E.01795
G1 X68.727 Y192.729 E.01795
G1 X68.378 Y193.183 E.01795
G1 X67.924 Y193.531 E.01795
G1 X67.418 Y193.741 E.01719
G1 X66.831 Y193.826 E.01858
G1 X66.26 Y193.751 E.01806
G1 X65.731 Y193.531 E.01795
G1 X65.277 Y193.183 E.01795
G1 X64.929 Y192.729 E.01795
G1 X64.709 Y192.2 E.01795
G1 X64.635 Y191.632 E.01795
G1 X64.71 Y191.065 E.01795
G1 X64.929 Y190.536 E.01795
G1 X65.277 Y190.082 E.01795
G1 X65.731 Y189.733 E.01795
G1 X66.26 Y189.514 E.01795
G1 X66.804 Y189.442 E.01719
G1 X67.392 Y189.513 E.01858
G1 X67.924 Y189.733 E.01806
G1 X68.378 Y190.082 E.01795
G1 X68.727 Y190.536 E.01795
G1 X68.946 Y191.065 E.01795
G1 X69.013 Y191.573 E.01607
G1 X68.64 Y191.632 F9000
;TYPE:External perimeter
G1 F1200
G1 X68.579 Y192.101 E.01484
G1 X68.398 Y192.539 E.01484
G1 X68.11 Y192.914 E.01484
G1 X67.734 Y193.202 E.01484
G1 X67.317 Y193.375 E.01415
G1 X66.829 Y193.445 E.01546
G1 X66.359 Y193.383 E.01488
G1 X65.921 Y193.202 E.01484
G1 X65.546 Y192.914 E.01484
G1 X65.258 Y192.539 E.01484
G1 X65.077 Y192.101 E.01484
G1 X65.015 Y191.632 E.01484
G1 X65.077 Y191.163 E.01484
G1 X65.258 Y190.726 E.01484
G1 X65.546 Y190.351 E.01484
G1 X65.921 Y190.062 E.01484
G1 X66.359 Y189.881 E.01484
G1 X66.806 Y189.822 E.01415
G1 X67.296 Y189.881 E.01546
G1 X67.734 Y190.062 E.01488
G1 X68.11 Y190.351 E.01484
G1 X68.398 Y190.726 E.01484
G1 X68.579 Y191.163 E.01484
G1 X68.633 Y191.573 E.01295
G1 X68.987 Y191.832 F9000
G1 E-.7 F3600
;WIPE_START
G1 F7200
G1 X68.579 Y192.101 E-.25242
G1 X68.552 Y192.165 E-.03258
;WIPE_END
G1 E-.015 F3600
G1 Z.4 F9000
G1 X66.43 Y186.135
G1 Z.2
G1 E1 F2400
;TYPE:Perimeter
G1 F1200
G1 X65.798 Y186.218 E.02
G1 X65.166 Y186.135 E.02
G1 X64.615 Y185.907 E.0187
G1 X64.074 Y185.507 E.02109
G1 X63.682 Y184.997 E.02016
G1 X63.438 Y184.407 E.02
G1 X63.355 Y183.775 E.02
G1 X63.438 Y183.143 E.02
G1 X63.682 Y182.554 E.02
G1 X64.071 Y182.048 E.02
G1 X64.577 Y181.659 E.02
G1 X65.166 Y181.415 E.02
G1 X65.757 Y181.338 E.0187
G1 X66.426 Y181.413 E.02109
G1 X67.02 Y181.659 E.02016
G1 X67.526 Y182.048 E.02
G1 X67.914 Y182.554 E.02
G1 X68.158 Y183.143 E.02
G1 X68.241 Y183.775 E.02
G1 X68.158 Y184.407 E.02
G1 X67.93 Y184.958 E.0187
G1 X67.53 Y185.499 E.02109
G1 X67.02 Y185.891 E.02017
G1 X66.486 Y186.112 E.01811
G1 X66.332 Y185.768 F9000
;TYPE:External perimeter
G1 F1200
G1 X65.798 Y185.838 E.01688
G1 X65.264 Y185.768 E.01688
G1 X64.802 Y185.576 E.01569
G1 X64.341 Y185.235 E.01798
G1 X64.012 Y184.807 E.01694
G1 X63.806 Y184.309 E.01688
G1 X63.736 Y183.775 E.01688
G1 X63.806 Y183.241 E.01688
G1 X64.012 Y182.744 E.01688
G1 X64.34 Y182.317 E.01688
G1 X64.767 Y181.989 E.01688
G1 X65.264 Y181.783 E.01688
G1 X65.761 Y181.717 E.01569
G1 X66.33 Y181.782 E.01798
G1 X66.83 Y181.989 E.01694
G1 X67.257 Y182.317 E.01688
G1 X67.585 Y182.744 E.01688
G1 X67.791 Y183.241 E.01688
G1 X67.861 Y183.775 E.01688
G1 X67.791 Y184.309 E.01688
G1 X67.599 Y184.771 E.01569
G1 X67.258 Y185.233 E.01798
G1 X66.83 Y185.562 E.01694
G1 X66.387 Y185.745 E.015
G1 X66.229 Y186.154 F9000
G1 E-.7 F3600
;WIPE_START
G1 F7200
G1 X65.798 Y185.838 E-.2834
G1 X65.795 Y185.837 E-.0016
;WIPE_END
G1 E-.015 F3600
G1 Z.4 F9000
G1 X65.798 Y124.418
G1 Z.2
G1 E1 F2400
;TYPE:Perimeter
G1 F1200
G1 X65.166 Y124.335 E.02
G1 X64.577 Y124.091 E.02
G1 X64.071 Y123.703 E.02
G1 X63.682 Y123.197 E.02
G1 X63.438 Y122.607 E.02
G1 X63.355 Y121.975 E.02
G1 X63.438 Y121.343 E.02
G1 X63.667 Y120.792 E.0187
G1 X64.066 Y120.251 E.02109
G1 X64.577 Y119.859 E.02016
G1 X65.166 Y119.615 E.02
G1 X65.757 Y119.538 E.0187
G1 X66.426 Y119.613 E.02109
G1 X67.02 Y119.859 E.02017
G1 X67.526 Y120.248 E.02
G1 X67.914 Y120.754 E.02
G1 X68.158 Y121.343 E.02
G1 X68.241 Y121.975 E.02
G1 X68.158 Y122.607 E.02
G1 X67.914 Y123.197 E.02
G1 X67.526 Y123.703 E.02
G1 X67.02 Y124.091 E.02
G1 X66.43 Y124.335 E.02
G1 X65.858 Y124.41 E.01812
G1 X65.798 Y124.038 F9000
;TYPE:External perimeter
G1 F1200
G1 X65.264 Y123.968 E.01688
G1 X64.767 Y123.762 E.01688
G1 X64.34 Y123.434 E.01688
G1 X64.012 Y123.007 E.01688
G1 X63.806 Y122.509 E.01688
G1 X63.736 Y121.975 E.01688
G1 X63.806 Y121.441 E.01688
G1 X63.997 Y120.979 E.01569
G1 X64.338 Y120.518 E.01798
G1 X64.767 Y120.189 E.01694
G1 X65.264 Y119.983 E.01688
G1 X65.761 Y119.917 E.01569
G1 X66.33 Y119.982 E.01798
G1 X66.83 Y120.189 E.01694
G1 X67.257 Y120.517 E.01688
G1 X67.585 Y120.944 E.01688
G1 X67.791 Y121.441 E.01688
G1 X67.861 Y121.975 E.01688
G1 X67.791 Y122.509 E.01688
G1 X67.585 Y123.007 E.01688
G1 X67.257 Y123.434 E.01688
G1 X66.83 Y123.762 E.01688
G1 X66.332 Y123.968 E.01688
G1 X65.858 Y124.03 E.015
G1 X65.598 Y124.384 F9000
G1 E-.7 F3600
;WIPE_START
G1 F7200
G1 X65.264 Y123.968 E-.2834
G1 X65.261 Y123.966 E-.0016
;WIPE_END
G1 E-.015 F3600
G1 Z.4 F9000
G1 X66.832 Y113.826
G1 Z.2
G1 E1 F2400
;TYPE:Perimeter
G1 F1200
G1 X66.26 Y113.751 E.01807
G1 X65.731 Y113.531 E.01795
G1 X65.277 Y113.183 E.01795
G1 X64.929 Y112.729 E.01795
G1 X64.709 Y112.2 E.01795
G1 X64.635 Y111.632 E.01795
G1 X64.709 Y111.065 E.01795
G1 X64.919 Y110.56 E.01714
G1 X65.274 Y110.084 E.01862
G1 X65.731 Y109.733 E.01807
G1 X66.26 Y109.514 E.01795
G1 X66.802 Y109.443 E.01714
G1 X67.392 Y109.513 E.01862
G1 X67.924 Y109.733 E.01807
G1 X68.378 Y110.082 E.01795
G1 X68.727 Y110.536 E.01795
G1 X68.946 Y111.065 E.01795
G1 X69.021 Y111.632 E.01795
G1 X68.946 Y112.2 E.01795
G1 X68.737 Y112.705 E.01714
G1 X68.382 Y113.181 E.01862
G1 X67.924 Y113.531 E.01807
G1 X67.419 Y113.741 E.01714
G1 X66.891 Y113.817 E.01674
G1 X66.829 Y113.445 F9000
;TYPE:External perimeter
G1 F1200
G1 X66.359 Y113.383 E.01488
G1 X65.921 Y113.202 E.01484
G1 X65.546 Y112.914 E.01484
G1 X65.258 Y112.539 E.01484
G1 X65.077 Y112.101 E.01484
G1 X65.015 Y111.632 E.01484
G1 X65.077 Y111.163 E.01484
G1 X65.249 Y110.748 E.0141
G1 X65.545 Y110.351 E.01551
G1 X65.921 Y110.062 E.01488
G1 X66.359 Y109.881 E.01484
G1 X66.805 Y109.823 E.0141
G1 X67.296 Y109.881 E.01551
G1 X67.734 Y110.062 E.01488
G1 X68.11 Y110.351 E.01484
G1 X68.398 Y110.726 E.01484
G1 X68.579 Y111.163 E.01484
G1 X68.64 Y111.632 E.01484
G1 X68.579 Y112.101 E.01484
G1 X68.407 Y112.517 E.0141
G1 X68.111 Y112.913 E.01551
G1 X67.734 Y113.202 E.01488
G1 X67.319 Y113.374 E.0141
G1 X66.889 Y113.437 E.01362
G1 X66.629 Y113.792 F9000
G1 E-.7 F3600
;WIPE_START
G1 F7200
G1 X66.359 Y113.383 E-.25298
G1 X66.296 Y113.357 E-.03202
;WIPE_END
G1 E-.015 F3600
G1 Z.4 F9000
G1 X103.187 Y111.182
G1 Z.2
G1 E1 F2400
;TYPE:Perimeter
G1 F1200
G1 X103.187 Y115.556 E.13715
