; generated by PrusaSlicer 2.4.1+arm64 on 2022-07-25 at 19:00:00 UTC

; 

; external perimeters extrusion width = 0.45mm
; perimeters extrusion width = 0.45mm
; infill extrusion width = 0.45mm
; solid infill extrusion width = 0.45mm
; top infill extrusion width = 0.40mm
; first layer extrusion width = 0.42mm

M107
;TYPE:Custom
G90 ; use absolute coordinates
M83 ; extruder relative mode
M140 S85 ; set final bed temp
M104 S150 ; set temporary nozzle temp to prevent oozing during homing and auto bed leveling
G4 S10 ; allow partial nozzle warmup
G28 ; home all axis
G1 Z50 F240
G1 X2 Y10 F3000
M104 S240 ; set final nozzle temp
M190 S85 ; wait for bed temp to stabilize
M109 S240 ; wait for nozzle temp to stabilize
G1 Z0.28 F240
G92 E0
G1 Y140 E10 F1500 ; prime the nozzle
G1 X2.3 F5000
G92 E0
G1 Y10 E10 F1200 ; prime the nozzle
G92 E0
G21 ; set units to millimeters
G90 ; use absolute coordinates
M83 ; use relative distances for extrusion
M900 K0.08 ; Filament gcode LA 1.5
M900 K200 ; Filament gcode LA 1.0
M107
;LAYER_CHANGE
;Z:0.2
;HEIGHT:0.2
;BEFORE_LAYER_CHANGE
G92 E0
;0.2


G1 E-1 F3600
G1 Z.2 F9000
;AFTER_LAYER_CHANGE
;0.2
G1 Z.4
G1 X40.256 Y56.204
G1 Z.2
G1 E1 F2400
M204 S500
;TYPE:Skirt/Brim
;WIDTH:0.42
G1 F1200
G1 X41.251 Y55.613 E.03629
G1 X42.455 Y55.153 E.0404
G1 X43.338 Y54.943 E.02847
G1 X44.632 Y54.823 E.04074
G1 X190.963 Y54.839 E4.58811
G1 X192.528 Y55.067 E.04959
G1 X194.013 Y55.613 E.0496
G1 X195.354 Y56.453 E.04961
G1 X196.27 Y57.306 E.03924
G1 X196.928 Y58.124 E.03293
G1 X197.728 Y59.596 E.05252
G1 X198.189 Y61.206 E.05252
G1 X198.309 Y62.5 E.04074
G1 X198.309 Y168.5 E3.32356
G1 X198.065 Y170.396 E.05994
G1 X197.519 Y171.881 E.0496
G1 X196.928 Y172.876 E.03629
G1 X196.493 Y173.449 E.02257
G1 X195.827 Y174.138 E.03004
G1 X195.008 Y174.796 E.03293
G1 X194.013 Y175.387 E.03629
G1 X192.81 Y175.847 E.0404
G1 X191.926 Y176.057 E.02847
G1 X190.632 Y176.177 E.04074
G1 X44.632 Y176.177 E4.57773
G1 X43.338 Y176.057 E.04074
G1 X42.32 Y175.803 E.03292
G1 X41.251 Y175.387 E.03595
G1 X39.911 Y174.547 E.0496
G1 X38.868 Y173.561 E.04498
G1 X34.411 Y168.591 E.20933
G1 X33.881 Y167.889 E.02758
G1 X33.322 Y166.916 E.03517
G1 X33.004 Y166.086 E.02786
G1 X32.825 Y165.349 E.02378
G1 X32.701 Y164.13 E.03842
G1 X32.691 Y66.828 E3.05084
G1 X32.815 Y65.606 E.03851
G1 X32.995 Y64.868 E.02382
G1 X33.314 Y64.037 E.02792
G1 X33.875 Y63.063 E.03524
G1 X34.416 Y62.35 E.02805
G1 X38.881 Y57.425 E.20843
G1 X39.683 Y56.64 E.03522
G1 X40.209 Y56.241 E.02068
G1 E-.7 F3600
;WIPE_START
G1 F7200
G1 X40.723 Y55.931 E-.285
;WIPE_END
G1 E-.015 F3600
G1 Z.4 F9000
G1 X115.444 Y127.813
G1 Z.2
G1 E1 F2400
;TYPE:Perimeter
G1 F1200
G1 X119.818 Y127.813 E.13715
G1 X119.818 Y144.187 E.5134
G1 X115.444 Y144.187 E.13715
G1 X115.444 Y127.873 E.51152
G1 X115.821 Y128.19 F9000
;TYPE:External perimeter
G1 F1200
G1 X119.441 Y128.19 E.1135
G1 X119.441 Y143.81 E.48975
G1 X115.821 Y143.81 E.1135
G1 X115.821 Y128.25 E.48787
G1 X115.79 Y127.791 F9000
G1 E-.7 F3600
;WIPE_START
G1 F7200
G1 X116.421 Y128.24 E-.285
;WIPE_END
G1 E-.015 F3600
G1 Z.4 F9000
G1 X119.305 Y161.946
G1 Z.2
G1 E1 F2400
;TYPE:Perimeter
G1 F1200
G1 X119.942 Y162.01 E.02006
G1 X120.474 Y162.231 E.01807
G1 X120.929 Y162.579 E.01795
G1 X121.277 Y163.033 E.01795
G1 X121.486 Y163.538 E.01714
G1 X121.571 Y164.126 E.01862
G1 X121.496 Y164.697 E.01807
G1 X121.277 Y165.226 E.01795
G1 X120.929 Y165.681 E.01795
G1 X120.474 Y166.029 E.01795
G1 X119.969 Y166.238 E.01714
G1 X119.382 Y166.323 E.01862
G1 X118.81 Y166.248 E.01807
G1 X118.305 Y166.039 E.01714
G1 X117.83 Y165.684 E.01862
G1 X117.479 Y165.226 E.01807
G1 X117.26 Y164.697 E.01795
G1 X117.185 Y164.13 E.01795
G1 X117.26 Y163.562 E.01795
G1 X117.479 Y163.033 E.01795
G1 X117.827 Y162.579 E.01795
G1 X118.281 Y162.231 E.01795
G1 X118.81 Y162.012 E.01795
G1 X119.246 Y161.954 E.01378
G1 X119.355 Y162.32 F9000
;TYPE:External perimeter
G1 F1200
G1 X119.846 Y162.378 E.01551
G1 X120.284 Y162.56 E.01488
G1 X120.66 Y162.848 E.01484
G1 X120.948 Y163.224 E.01484
G1 X121.12 Y163.639 E.0141
G1 X121.191 Y164.128 E.01551
G1 X121.129 Y164.599 E.01488
G1 X120.948 Y165.036 E.01484
G1 X120.66 Y165.412 E.01484
G1 X120.284 Y165.7 E.01484
G1 X119.869 Y165.872 E.0141
G1 X119.379 Y165.943 E.01551
G1 X118.909 Y165.881 E.01488
G1 X118.493 Y165.709 E.0141
G1 X118.097 Y165.413 E.01551
G1 X117.808 Y165.036 E.01488
G1 X117.627 Y164.599 E.01484
G1 X117.565 Y164.13 E.01484
G1 X117.627 Y163.661 E.01484
G1 X117.808 Y163.224 E.01484
G1 X118.096 Y162.848 E.01484
G1 X118.472 Y162.56 E.01484
G1 X118.909 Y162.379 E.01484
G1 X119.295 Y162.328 E.01222
G1 X119.551 Y161.972 F9000
G1 E-.7 F3600
;WIPE_START
G1 F7200
G1 X119.846 Y162.378 E-.26264
G1 X119.889 Y162.396 E-.02236
;WIPE_END
G1 E-.015 F3600
G1 Z.4 F9000
G1 X111.385 Y164.466
G1 Z.2
G1 E1 F2400
;TYPE:Perimeter
G1 F1200
G1 X111.468 Y165.098 E.02
G1 X111.385 Y165.73 E.02
G1 X111.156 Y166.281 E.0187
G1 X110.757 Y166.822 E.02109
G1 X110.246 Y167.214 E.02016
G1 X109.657 Y167.458 E.02
G1 X109.025 Y167.541 E.02
G1 X108.393 Y167.458 E.02
G1 X107.803 Y167.214 E.02
G1 X107.297 Y166.826 E.02
G1 X106.909 Y166.32 E.02
G1 X106.665 Y165.73 E.02
G1 X106.582 Y165.098 E.02
G1 X106.665 Y164.466 E.02
G1 X106.909 Y163.877 E.02
G1 X107.297 Y163.371 E.02
G1 X107.803 Y162.982 E.02
G1 X108.393 Y162.738 E.02
G1 X108.984 Y162.661 E.0187
G1 X109.652 Y162.736 E.02109
G1 X110.246 Y162.982 E.02016
G1 X110.752 Y163.371 E.02
G1 X111.141 Y163.877 E.02
G1 X111.362 Y164.41 E.01811
G1 X111.017 Y164.564 F9000
;TYPE:External perimeter
G1 F1200
G1 X111.087 Y165.098 E.01688
G1 X111.017 Y165.632 E.01688
G1 X110.826 Y166.094 E.01569
G1 X110.485 Y166.556 E.01798
G1 X110.056 Y166.885 E.01694
G1 X109.559 Y167.091 E.01688
G1 X109.025 Y167.161 E.01688
G1 X108.491 Y167.091 E.01688
G1 X107.993 Y166.885 E.01688
G1 X107.566 Y166.557 E.01688
G1 X107.238 Y166.13 E.01688
G1 X107.032 Y165.632 E.01688
G1 X106.962 Y165.098 E.01688
G1 X107.032 Y164.564 E.01688
G1 X107.238 Y164.067 E.01688
G1 X107.566 Y163.64 E.01688
G1 X107.993 Y163.312 E.01688
G1 X108.491 Y163.106 E.01688
G1 X108.987 Y163.04 E.01569
G1 X109.557 Y163.105 E.01798
G1 X110.056 Y163.312 E.01694
G1 X110.483 Y163.64 E.01688
G1 X110.811 Y164.067 E.01688
G1 X110.994 Y164.509 E.015
G1 X111.404 Y164.668 F9000
G1 E-.7 F3600
;WIPE_START
G1 F7200
G1 X111.087 Y165.098 E-.2834
G1 X111.087 Y165.102 E-.0016
;WIPE_END
G1 E-.015 F3600
G1 Z.4 F9000
G1 X49.668 Y165.098
G1 Z.2
G1 E1 F2400
;TYPE:Perimeter
G1 F1200
G1 X49.585 Y165.73 E.02
G1 X49.341 Y166.32 E.02
G1 X48.952 Y166.826 E.02
G1 X48.446 Y167.214 E.02
G1 X47.857 Y167.458 E.02
G1 X47.225 Y167.541 E.02
G1 X46.593 Y167.458 E.02
G1 X46.042 Y167.23 E.0187
G1 X45.501 Y166.83 E.02109
G1 X45.109 Y166.32 E.02016
G1 X44.865 Y165.73 E.02
G1 X44.782 Y165.098 E.02
G1 X44.865 Y164.466 E.02
G1 X45.109 Y163.877 E.02
G1 X45.497 Y163.371 E.02
G1 X46.003 Y162.982 E.02
G1 X46.593 Y162.738 E.02
G1 X47.184 Y162.661 E.0187
G1 X47.852 Y162.736 E.02109
G1 X48.446 Y162.982 E.02016
G1 X48.952 Y163.371 E.02
G1 X49.341 Y163.877 E.02
G1 X49.585 Y164.466 E.02
G1 X49.66 Y165.039 E.01812
G1 X49.287 Y165.098 F9000
;TYPE:External perimeter
G1 F1200
G1 X49.217 Y165.632 E.01688
G1 X49.011 Y166.13 E.01688
G1 X48.683 Y166.557 E.01688
G1 X48.256 Y166.885 E.01688
G1 X47.759 Y167.091 E.01688
G1 X47.225 Y167.161 E.01688
G1 X46.691 Y167.091 E.01688
G1 X46.229 Y166.899 E.01569
G1 X45.767 Y166.558 E.01798
G1 X45.438 Y166.13 E.01694
G1 X45.232 Y165.632 E.01688
G1 X45.162 Y165.098 E.01688
G1 X45.232 Y164.564 E.01688
G1 X45.438 Y164.067 E.01688
G1 X45.766 Y163.64 E.01688
G1 X46.193 Y163.312 E.01688
G1 X46.691 Y163.106 E.01688
G1 X47.187 Y163.04 E.01569
G1 X47.757 Y163.105 E.01798
G1 X48.256 Y163.312 E.01694
G1 X48.683 Y163.64 E.01688
G1 X49.011 Y164.067 E.01688
G1 X49.217 Y164.564 E.01688
G1 X49.28 Y165.039 E.015
G1 X49.634 Y165.298 F9000
G1 E-.7 F3600
;WIPE_START
G1 F7200
G1 X49.217 Y165.632 E-.28339
G1 X49.216 Y165.635 E-.0016
;WIPE_END
G1 E-.015 F3600
G1 Z.4 F9000
G1 X41.571 Y164.126
G1 Z.2
G1 E1 F2400
;TYPE:Perimeter
G1 F1200
G1 X41.496 Y164.697 E.01806
G1 X41.277 Y165.226 E.01795
G1 X40.929 Y165.681 E.01795
G1 X40.474 Y166.029 E.01795
G1 X39.968 Y166.239 E.01719
G1 X39.382 Y166.323 E.01858
G1 X38.81 Y166.248 E.01806
G1 X38.281 Y166.029 E.01795
G1 X37.827 Y165.681 E.01795
G1 X37.479 Y165.226 E.01795
G1 X37.269 Y164.72 E.01719
G1 X37.184 Y164.133 E.01858
G1 X37.26 Y163.562 E.01807
G1 X37.479 Y163.033 E.01795
G1 X37.827 Y162.579 E.01795
G1 X38.281 Y162.231 E.01795
G1 X38.81 Y162.012 E.01795
G1 X39.354 Y161.94 E.01719
G1 X39.942 Y162.01 E.01858
G1 X40.474 Y162.231 E.01806
G1 X40.929 Y162.579 E.01795
G1 X41.277 Y163.033 E.01795
G1 X41.487 Y163.54 E.01719
G1 X41.563 Y164.067 E.01669
G1 X41.191 Y164.129 F9000
;TYPE:External perimeter
G1 F1200
G1 X41.129 Y164.599 E.01488
G1 X40.948 Y165.036 E.01484
G1 X40.66 Y165.412 E.01484
G1 X40.284 Y165.7 E.01484
G1 X39.867 Y165.872 E.01415
G1 X39.379 Y165.943 E.01546
G1 X38.909 Y165.881 E.01488
G1 X38.472 Y165.7 E.01484
G1 X38.096 Y165.412 E.01484
G1 X37.808 Y165.036 E.01484
G1 X37.635 Y164.619 E.01415
G1 X37.565 Y164.131 E.01546
G1 X37.627 Y163.661 E.01488
G1 X37.808 Y163.224 E.01484
G1 X38.096 Y162.848 E.01484
G1 X38.472 Y162.56 E.01484
G1 X38.909 Y162.379 E.01484
G1 X39.356 Y162.32 E.01415
G1 X39.846 Y162.378 E.01546
G1 X40.284 Y162.56 E.01488
G1 X40.66 Y162.848 E.01484
G1 X40.948 Y163.224 E.01484
G1 X41.12 Y163.64 E.01415
G1 X41.182 Y164.069 E.01358
G1 X41.537 Y164.328 F9000
G1 E-.7 F3600
;WIPE_START
G1 F7200
G1 X41.129 Y164.599 E-.25295
G1 X41.103 Y164.661 E-.03205
;WIPE_END
G1 E-.015 F3600
G1 Z.4 F9000
G1 X39.368 Y69.021
G1 Z.2
G1 E1 F2400
;TYPE:Perimeter
G1 F1200
G1 X38.8 Y68.946 E.01795
G1 X38.271 Y68.727 E.01795
G1 X37.817 Y68.378 E.01795
G1 X37.469 Y67.924 E.01795
G1 X37.259 Y67.418 E.01719
G1 X37.174 Y66.831 E.01857
G1 X37.249 Y66.26 E.01806
G1 X37.469 Y65.731 E.01795
G1 X37.817 Y65.277 E.01795
G1 X38.271 Y64.929 E.01795
G1 X38.8 Y64.709 E.01795
G1 X39.344 Y64.638 E.01719
G1 X39.932 Y64.708 E.01858
G1 X40.464 Y64.929 E.01806
G1 X40.918 Y65.277 E.01795
G1 X41.267 Y65.731 E.01795
G1 X41.486 Y66.26 E.01795
G1 X41.561 Y66.828 E.01795
G1 X41.486 Y67.395 E.01795
G1 X41.267 Y67.924 E.01795
G1 X40.918 Y68.378 E.01795
G1 X40.464 Y68.727 E.01795
G1 X39.935 Y68.946 E.01795
G1 X39.427 Y69.013 E.01607
G1 X39.368 Y68.64 F9000
;TYPE:External perimeter
G1 F1200
G1 X38.899 Y68.579 E.01484
G1 X38.461 Y68.398 E.01484
G1 X38.086 Y68.11 E.01484
G1 X37.798 Y67.734 E.01484
G1 X37.625 Y67.317 E.01415
G1 X37.555 Y66.829 E.01546
G1 X37.617 Y66.359 E.01488
G1 X37.798 Y65.921 E.01484
G1 X38.086 Y65.546 E.01484
G1 X38.461 Y65.258 E.01484
G1 X38.899 Y65.077 E.01484
G1 X39.346 Y65.018 E.01415
G1 X39.836 Y65.076 E.01546
G1 X40.274 Y65.258 E.01488
G1 X40.649 Y65.546 E.01484
G1 X40.938 Y65.921 E.01484
G1 X41.119 Y66.359 E.01484
G1 X41.18 Y66.828 E.01484
G1 X41.119 Y67.297 E.01484
G1 X40.938 Y67.734 E.01484
G1 X40.649 Y68.11 E.01484
G1 X40.274 Y68.398 E.01484
G1 X39.837 Y68.579 E.01484
G1 X39.427 Y68.633 E.01295
G1 X39.168 Y68.987 F9000
G1 E-.7 F3600
;WIPE_START
G1 F7200
G1 X38.899 Y68.579 E-.25242
G1 X38.835 Y68.552 E-.03258
;WIPE_END
G1 E-.015 F3600
G1 Z.4 F9000
G1 X44.865 Y66.43
G1 Z.2
G1 E1 F2400
;TYPE:Perimeter
G1 F1200
G1 X44.782 Y65.798 E.02
G1 X44.865 Y65.166 E.02
G1 X45.093 Y64.615 E.0187
G1 X45.493 Y64.074 E.02109
G1 X46.003 Y63.682 E.02016
G1 X46.593 Y63.438 E.02
G1 X47.184 Y63.361 E.0187
G1 X47.852 Y63.436 E.02109
G1 X48.446 Y63.682 E.02016
G1 X48.952 Y64.071 E.02
G1 X49.341 Y64.577 E.02
G1 X49.585 Y65.166 E.02
G1 X49.668 Y65.798 E.02
G1 X49.585 Y66.43 E.02
G1 X49.341 Y67.02 E.02
G1 X48.952 Y67.526 E.02
G1 X48.446 Y67.914 E.02
G1 X47.857 Y68.158 E.02
G1 X47.225 Y68.241 E.02
G1 X46.593 Y68.158 E.02
G1 X46.042 Y67.93 E.0187
G1 X45.501 Y67.53 E.02109
G1 X45.109 Y67.02 E.02017
G1 X44.888 Y66.486 E.01811
G1 X45.232 Y66.332 F9000
;TYPE:External perimeter
G1 F1200
G1 X45.162 Y65.798 E.01688
G1 X45.232 Y65.264 E.01688
G1 X45.424 Y64.802 E.01569
G1 X45.765 Y64.341 E.01798
G1 X46.193 Y64.012 E.01694
G1 X46.691 Y63.806 E.01688
G1 X47.187 Y63.74 E.01569
G1 X47.757 Y63.805 E.01798
G1 X48.256 Y64.012 E.01694
G1 X48.683 Y64.34 E.01688
G1 X49.011 Y64.767 E.01688
G1 X49.217 Y65.264 E.01688
G1 X49.287 Y65.798 E.01688
G1 X49.217 Y66.332 E.01688
G1 X49.011 Y66.83 E.01688
G1 X48.683 Y67.257 E.01688
G1 X48.256 Y67.585 E.01688
G1 X47.759 Y67.791 E.01688
G1 X47.225 Y67.861 E.01688
G1 X46.691 Y67.791 E.01688
G1 X46.229 Y67.599 E.01569
G1 X45.767 Y67.258 E.01798
G1 X45.438 Y66.83 E.01694
G1 X45.255 Y66.387 E.015
G1 X44.846 Y66.229 F9000
G1 E-.7 F3600
;WIPE_START
G1 F7200
G1 X45.162 Y65.798 E-.2834
G1 X45.163 Y65.795 E-.0016
;WIPE_END
G1 E-.015 F3600
G1 Z.4 F9000
G1 X91.818 Y59.813
G1 Z.2
G1 E1 F2400
;TYPE:Perimeter
G1 F1200
G1 X91.818 Y71.187 E.35663
G1 X66.352 Y71.187 E.79847
G1 X66.352 Y59.813 E.35663
G1 X91.758 Y59.813 E.79659
G1 X91.441 Y60.19 F9000
;TYPE:External perimeter
G1 F1200
G1 X91.441 Y70.81 E.33298
G1 X66.729 Y70.81 E.77483
G1 X66.729 Y60.19 E.33298
G1 X91.381 Y60.19 E.77294
G1 X91.837 Y60.136 F9000
G1 E-.7 F3600
;WIPE_START
G1 F7200
G1 X91.384 Y60.79 E-.285
;WIPE_END
G1 E-.015 F3600
G1 Z.4 F9000
G1 X106.665 Y65.166
G1 Z.2
G1 E1 F2400
;TYPE:Perimeter
G1 F1200
G1 X106.909 Y64.577 E.02
G1 X107.297 Y64.071 E.02
G1 X107.803 Y63.682 E.02
G1 X108.393 Y63.438 E.02
G1 X108.984 Y63.361 E.0187
G1 X109.652 Y63.436 E.02109
G1 X110.246 Y63.682 E.02016
G1 X110.752 Y64.071 E.02
G1 X111.141 Y64.577 E.02
G1 X111.385 Y65.166 E.02
G1 X111.468 Y65.798 E.02
G1 X111.385 Y66.43 E.02
G1 X111.141 Y67.02 E.02
G1 X110.752 Y67.526 E.02
G1 X110.246 Y67.914 E.02
G1 X109.657 Y68.158 E.02
G1 X109.025 Y68.241 E.02
G1 X108.393 Y68.158 E.02
G1 X107.803 Y67.914 E.02
G1 X107.297 Y67.526 E.02
G1 X106.909 Y67.02 E.02
G1 X106.665 Y66.43 E.02
G1 X106.582 Y65.798 E.02
G1 X106.657 Y65.225 E.01812
G1 X107.032 Y65.264 F9000
;TYPE:External perimeter
G1 F1200
G1 X107.238 Y64.767 E.01688
G1 X107.566 Y64.34 E.01688
G1 X107.993 Y64.012 E.01688
G1 X108.491 Y63.806 E.01688
G1 X108.987 Y63.74 E.01569
G1 X109.557 Y63.805 E.01798
G1 X110.056 Y64.012 E.01694
G1 X110.483 Y64.34 E.01688
G1 X110.811 Y64.767 E.01688
G1 X111.017 Y65.264 E.01688
G1 X111.087 Y65.798 E.01688
G1 X111.017 Y66.332 E.01688
G1 X110.811 Y66.83 E.01688
G1 X110.483 Y67.257 E.01688
G1 X110.056 Y67.585 E.01688
G1 X109.559 Y67.791 E.01688
G1 X109.025 Y67.861 E.01688
G1 X108.491 Y67.791 E.01688
G1 X107.993 Y67.585 E.01688
G1 X107.566 Y67.257 E.01688
G1 X107.238 Y66.83 E.01688
G1 X107.032 Y66.332 E.01688
G1 X106.962 Y65.798 E.01688
G1 X107.025 Y65.324 E.015
G1 X106.75 Y64.981 F9000
G1 E-.7 F3600
;WIPE_START
G1 F7200
G1 X107.238 Y64.767 E-.2834
G1 X107.241 Y64.764 E-.0016
;WIPE_END
G1 E-.015 F3600
G1 Z.4 F9000
G1 X117.174 Y66.832
G1 Z.2
G1 E1 F2400
;TYPE:Perimeter
G1 F1200
G1 X117.249 Y66.26 E.01807
G1 X117.469 Y65.731 E.01795
G1 X117.817 Y65.277 E.01795
G1 X118.271 Y64.929 E.01795
G1 X118.8 Y64.709 E.01795
G1 X119.342 Y64.638 E.01714
G1 X119.932 Y64.708 E.01862
G1 X120.464 Y64.929 E.01807
G1 X120.918 Y65.277 E.01795
G1 X121.267 Y65.731 E.01795
G1 X121.486 Y66.26 E.01795
G1 X121.561 Y66.828 E.01795
G1 X121.486 Y67.395 E.01795
G1 X121.267 Y67.924 E.01795
G1 X120.918 Y68.378 E.01795
G1 X120.464 Y68.727 E.01795
G1 X119.935 Y68.946 E.01795
G1 X119.368 Y69.021 E.01795
G1 X118.8 Y68.946 E.01795
G1 X118.271 Y68.727 E.01795
G1 X117.817 Y68.378 E.01795
G1 X117.469 Y67.924 E.01795
G1 X117.259 Y67.419 E.01714
G1 X117.183 Y66.891 E.01674
G1 X117.555 Y66.829 F9000
;TYPE:External perimeter
G1 F1200
G1 X117.617 Y66.359 E.01488
G1 X117.798 Y65.921 E.01484
G1 X118.086 Y65.546 E.01484
G1 X118.461 Y65.258 E.01484
G1 X118.899 Y65.077 E.01484
G1 X119.344 Y65.018 E.0141
G1 X119.836 Y65.076 E.01551
G1 X120.274 Y65.258 E.01488
G1 X120.649 Y65.546 E.01484
G1 X120.938 Y65.921 E.01484
G1 X121.119 Y66.359 E.01484
G1 X121.18 Y66.828 E.01484
G1 X121.119 Y67.297 E.01484
G1 X120.938 Y67.734 E.01484
G1 X120.649 Y68.11 E.01484
G1 X120.274 Y68.398 E.01484
G1 X119.837 Y68.579 E.01484
G1 X119.368 Y68.64 E.01484
G1 X118.899 Y68.579 E.01484
G1 X118.461 Y68.398 E.01484
G1 X118.086 Y68.11 E.01484
G1 X117.798 Y67.734 E.01484
