; generated by PrusaSlicer 2.4.1+arm64 on 2022-07-26 at 00:24:11 UTC

; 

; external perimeters extrusion width = 0.45mm
; perimeters extrusion width = 0.45mm
; infill extrusion width = 0.45mm
; solid infill extrusion width = 0.45mm
; top infill extrusion width = 0.40mm
; first layer extrusion width = 0.42mm

M107
;TYPE:Custom
G90 ; use absolute coordinates
M83 ; extruder relative mode
M140 S85 ; set final bed temp
M104 S150 ; set temporary nozzle temp to prevent oozing during homing and auto bed leveling
G4 S10 ; allow partial nozzle warmup
G28 ; home all axis
G1 Z50 F240
G1 X2 Y10 F3000
M104 S240 ; set final nozzle temp
M190 S85 ; wait for bed temp to stabilize
M109 S240 ; wait for nozzle temp to stabilize
G1 Z0.28 F240
G92 E0
G1 Y140 E10 F1500 ; prime the nozzle
G1 X2.3 F5000
G92 E0
G1 Y10 E10 F1200 ; prime the nozzle
G92 E0
G21 ; set units to millimeters
G90 ; use absolute coordinates
M83 ; use relative distances for extrusion
M900 K0.08 ; Filament gcode LA 1.5
M900 K200 ; Filament gcode LA 1.0
M107
;LAYER_CHANGE
;Z:0.2
;HEIGHT:0.2
;BEFORE_LAYER_CHANGE
G92 E0
;0.2


G1 E-1 F3600
G1 Z.2 F9000
;AFTER_LAYER_CHANGE
;0.2
G1 Z.4
G1 X57.293 Y55.116
G1 Z.2
G1 E1 F2400
M204 S500
;TYPE:Skirt/Brim
;WIDTH:0.42
G1 F1200
G1 X62.772 Y50.196 E.23089
G1 X63.529 Y49.696 E.02842
G1 X64.602 Y49.197 E.03711
G1 X65.547 Y48.943 E.03069
G1 X66.581 Y48.825 E.03261
G1 X164.377 Y48.835 E3.06634
G1 X165.408 Y48.953 E.03255
G1 X166.119 Y49.132 E.02298
G1 X166.866 Y49.417 E.02507
G1 X167.637 Y49.823 E.02734
G1 X168.761 Y50.7 E.04469
G1 X174.017 Y55.42 E.22148
G1 X174.894 Y56.509 E.04384
G1 X175.557 Y57.74 E.04384
G1 X175.985 Y59.071 E.04384
G1 X176.177 Y60.752 E.05304
G1 X176.177 Y130.55 E2.18848
G1 X175.783 Y132.133 E.05115
G1 X175.103 Y133.02 E.03503
G1 X167.687 Y139.907 E.31734
G1 X166.911 Y140.441 E.02954
G1 X166.104 Y140.811 E.02784
G1 X165.409 Y141.022 E.02277
G1 X164.238 Y141.168 E.03698
G1 X66.719 Y141.158 E3.05764
G1 X65.551 Y141.012 E.03689
G1 X64.858 Y140.802 E.02272
G1 X63.567 Y140.124 E.04573
G1 X62.858 Y139.541 E.02876
G1 X55.891 Y133.015 E.29933
G1 X55.005 Y131.645 E.05115
G1 X54.823 Y130.55 E.03479
G1 X54.836 Y60.457 E2.19771
G1 X55.015 Y59.071 E.04383
G1 X55.272 Y58.187 E.02887
G1 X55.895 Y56.854 E.04612
G1 X56.412 Y56.089 E.02895
G1 X57.253 Y55.16 E.03929
G1 E-.7 F3600
;WIPE_START
G1 F7200
G1 X57.699 Y54.759 E-.285
;WIPE_END
G1 E-.015 F3600
G1 Z.4 F9000
G1 X162.854 Y134.256
G1 Z.2
G1 E1 F2400
;TYPE:External perimeter
G1 F1200
G1 X163.219 Y133.936 E.01521
G1 X163.659 Y133.747 E.01502
G1 X164.104 Y133.688 E.01407
G1 X164.599 Y133.747 E.01562
G1 X165.041 Y133.936 E.01507
G1 X165.406 Y134.256 E.01521
G1 X165.621 Y134.657 E.01427
G1 X165.783 Y135.055 E.01348
G1 X165.842 Y135.497 E.01399
G1 X165.783 Y135.94 E.01401
G1 X165.612 Y136.353 E.01401
G1 X165.34 Y136.708 E.01401
G1 X164.986 Y136.98 E.01401
G1 X164.573 Y137.151 E.01401
G1 X164.13 Y137.209 E.01401
G1 X163.687 Y137.151 E.01401
G1 X163.285 Y136.984 E.01364
G1 X162.92 Y136.708 E.01435
G1 X162.647 Y136.353 E.01404
G1 X162.476 Y135.94 E.01401
G1 X162.418 Y135.497 E.01401
G1 X162.476 Y135.055 E.01399
G1 X162.639 Y134.657 E.01348
G1 X162.826 Y134.309 E.01239
G1 X162.724 Y133.878 F9000
G1 E-.7 F3600
;WIPE_START
G1 F7200
G1 X163.219 Y133.936 E-.25725
G1 X163.273 Y133.913 E-.02775
;WIPE_END
G1 E-.015 F3600
G1 Z.4 F9000
G1 X68.54 Y135.487
G1 Z.2
G1 E1 F2400
G1 F1200
G1 X68.481 Y135.93 E.01401
G1 X68.315 Y136.332 E.01364
G1 X68.039 Y136.697 E.01435
G1 X67.684 Y136.97 E.01404
G1 X67.271 Y137.141 E.01401
G1 X66.828 Y137.199 E.01401
G1 X66.385 Y137.141 E.01401
G1 X65.983 Y136.974 E.01364
G1 X65.618 Y136.698 E.01435
G1 X65.345 Y136.343 E.01404
G1 X65.174 Y135.93 E.01401
G1 X65.116 Y135.487 E.01401
G1 X65.174 Y135.045 E.01398
G1 X65.336 Y134.646 E.01349
G1 X65.552 Y134.245 E.01429
G1 X65.917 Y133.926 E.0152
G1 X66.357 Y133.737 E.01502
G1 X66.802 Y133.678 E.01407
G1 X67.297 Y133.736 E.01562
G1 X67.739 Y133.926 E.01507
G1 X68.104 Y134.245 E.0152
G1 X68.32 Y134.646 E.01429
G1 X68.481 Y135.045 E.01349
G1 X68.532 Y135.428 E.0121
G1 X68.886 Y135.688 F9000
G1 E-.7 F3600
;WIPE_START
G1 F7200
G1 X68.481 Y135.93 E-.2399
G1 X68.445 Y136.018 E-.0451
;WIPE_END
G1 E-.015 F3600
G1 Z.4 F9000
G1 X167.087 Y61.649
G1 Z.2
G1 E1 F2400
;TYPE:Perimeter
G1 F1200
G1 X167.087 Y124.837 E1.98122
G1 X63.813 Y124.837 E3.23809
G1 X63.813 Y61.649 E1.98122
G1 X167.027 Y61.649 E3.23621
G1 X166.71 Y62.026 F9000
;TYPE:External perimeter
G1 F1200
G1 X166.71 Y124.46 E1.95757
G1 X64.19 Y124.46 E3.21444
G1 X64.19 Y62.026 E1.95757
G1 X166.65 Y62.026 E3.21256
G1 X167.103 Y61.953 F9000
G1 E-.7 F3600
;WIPE_START
G1 F7200
G1 X166.651 Y62.626 E-.285
;WIPE_END
G1 E-.015 F3600
G1 Z.4 F9000
G1 X68.671 Y55.487
G1 Z.2
G1 E1 F2400
;TYPE:Perimeter
G1 F1200
G1 X68.608 Y55.964 E.01509
G1 X68.439 Y56.371 E.01382
G1 X68.137 Y56.786 E.01609
G1 X67.749 Y57.083 E.01531
G1 X67.305 Y57.267 E.01509
G1 X66.828 Y57.33 E.01509
G1 X66.351 Y57.267 E.01509
G1 X65.906 Y57.083 E.01509
G1 X65.525 Y56.79 E.01509
G1 X65.232 Y56.409 E.01509
G1 X65.048 Y55.964 E.01509
G1 X64.985 Y55.487 E.01509
G1 X65.048 Y55.01 E.01509
G1 X65.232 Y54.566 E.01509
G1 X65.525 Y54.184 E.01509
G1 X65.906 Y53.891 E.01509
G1 X66.351 Y53.707 E.01508
G1 X66.788 Y53.649 E.01382
G1 X67.298 Y53.704 E.01609
G1 X67.749 Y53.891 E.01531
G1 X68.131 Y54.184 E.01509
G1 X68.424 Y54.566 E.01509
G1 X68.608 Y55.01 E.01509
G1 X68.663 Y55.428 E.0132
G1 X68.29 Y55.487 F9000
;TYPE:External perimeter
G1 F1200
G1 X68.241 Y55.866 E.01197
G1 X68.108 Y56.185 E.01085
G1 X67.864 Y56.52 E.01298
G1 X67.559 Y56.754 E.01205
G1 X67.206 Y56.9 E.01197
G1 X66.828 Y56.95 E.01197
G1 X66.449 Y56.9 E.01197
G1 X66.096 Y56.754 E.01197
G1 X65.794 Y56.521 E.01197
G1 X65.561 Y56.218 E.01197
G1 X65.415 Y55.866 E.01197
G1 X65.365 Y55.487 E.01197
G1 X65.415 Y55.108 E.01197
G1 X65.561 Y54.756 E.01197
G1 X65.794 Y54.453 E.01197
G1 X66.096 Y54.22 E.01197
G1 X66.449 Y54.074 E.01197
G1 X66.792 Y54.029 E.01085
G1 X67.204 Y54.073 E.01298
G1 X67.559 Y54.22 E.01205
G1 X67.862 Y54.453 E.01197
G1 X68.094 Y54.756 E.01197
G1 X68.241 Y55.108 E.01197
G1 X68.283 Y55.428 E.01009
G1 X68.621 Y55.678 F9000
G1 E-.7 F3600
;WIPE_START
G1 F7200
G1 X68.241 Y55.866 E-.20903
G1 X68.179 Y56.013 E-.07597
;WIPE_END
G1 E-.015 F3600
G1 Z.4 F9000
G1 X162.287 Y55.497
G1 Z.2
G1 E1 F2400
;TYPE:Perimeter
G1 F1200
G1 X162.35 Y55.02 E.01509
G1 X162.534 Y54.576 E.01508
G1 X162.827 Y54.194 E.01509
G1 X163.208 Y53.901 E.01509
G1 X163.653 Y53.717 E.01508
G1 X164.09 Y53.66 E.01382
G1 X164.6 Y53.714 E.01609
G1 X165.051 Y53.901 E.01531
G1 X165.433 Y54.194 E.01509
G1 X165.726 Y54.576 E.01509
G1 X165.91 Y55.02 E.01508
G1 X165.973 Y55.497 E.01509
G1 X165.91 Y55.974 E.01509
G1 X165.726 Y56.419 E.01508
G1 X165.433 Y56.8 E.01509
G1 X165.051 Y57.093 E.01509
G1 X164.607 Y57.277 E.01508
G1 X164.13 Y57.34 E.01509
G1 X163.653 Y57.277 E.01509
G1 X163.246 Y57.109 E.01382
G1 X162.831 Y56.806 E.01609
G1 X162.534 Y56.419 E.01531
G1 X162.35 Y55.974 E.01508
G1 X162.295 Y55.557 E.0132
G1 X162.667 Y55.497 F9000
;TYPE:External perimeter
G1 F1200
G1 X162.717 Y55.119 E.01197
G1 X162.863 Y54.766 E.01197
G1 X163.096 Y54.463 E.01197
G1 X163.399 Y54.231 E.01197
G1 X163.751 Y54.084 E.01197
G1 X164.094 Y54.039 E.01085
G1 X164.506 Y54.083 E.01298
G1 X164.861 Y54.231 E.01205
G1 X165.164 Y54.463 E.01197
G1 X165.397 Y54.766 E.01197
G1 X165.543 Y55.119 E.01197
G1 X165.593 Y55.497 E.01197
G1 X165.543 Y55.876 E.01197
G1 X165.397 Y56.229 E.01197
G1 X165.164 Y56.532 E.01197
G1 X164.861 Y56.764 E.01197
G1 X164.508 Y56.91 E.01197
G1 X164.13 Y56.96 E.01197
G1 X163.751 Y56.91 E.01197
G1 X163.432 Y56.778 E.01085
G1 X163.097 Y56.534 E.01298
G1 X162.863 Y56.229 E.01205
G1 X162.717 Y55.876 E.01197
G1 X162.675 Y55.557 E.01009
G1 X162.336 Y55.306 F9000
G1 E-.7 F3600
;WIPE_START
G1 F7200
G1 X162.717 Y55.119 E-.20903
G1 X162.778 Y54.971 E-.07597
;WIPE_END
G1 E-.015 F3600
G1 Z.4 F9000
G1 X68.739 Y57.339
G1 Z.2
G1 E1 F2400
;TYPE:Perimeter
G1 F1200
G1 X162.211 Y57.339 E2.93073
G1 X161.77 Y55.981 E.04476
G1 X161.724 Y55.434 E.01721
G1 X161.819 Y54.821 E.01946
G1 X162.034 Y54.31 E.01737
G1 X162.358 Y53.865 E.01727
G1 X162.787 Y53.498 E.01769
G1 X163.279 Y53.245 E.01734
G1 X163.883 Y53.104 E.01944
G1 X164.439 Y53.109 E.01745
G1 X164.917 Y53.224 E.01542
G1 X165.476 Y53.501 E.01956
G1 X165.901 Y53.865 E.01755
G1 X166.225 Y54.31 E.01727
G1 X166.44 Y54.821 E.01737
G1 X166.536 Y55.434 E.01946
G1 X166.489 Y55.981 E.01721
G1 X166.049 Y57.339 E.04476
G1 X168.467 Y57.339 E.07582
G1 X169.157 Y57.406 E.02174
G1 X169.786 Y57.594 E.02058
G1 X170.429 Y57.943 E.02293
G1 X170.934 Y58.365 E.02063
G1 X171.349 Y58.88 E.02074
G1 X171.626 Y59.397 E.01839
G1 X171.846 Y60.098 E.02304
G1 X171.913 Y60.785 E.02162
G1 X171.913 Y129.663 E2.15963
G1 X170.096 Y129.663 E.05698
G1 X169.224 Y129.75 E.02747
G1 X168.353 Y130.018 E.02857
G1 X167.555 Y130.452 E.02848
G1 X166.912 Y130.979 E.02606
G1 X166.289 Y131.742 E.0309
G1 X165.897 Y132.476 E.02607
G1 X165.627 Y133.36 E.029
G1 X165.601 Y133.926 E.01775
G1 X165.244 Y133.613 E.01487
G1 X164.697 Y133.378 E.01866
G1 X164.101 Y133.308 E.01882
G1 X163.558 Y133.38 E.01718
G1 X163.015 Y133.613 E.01852
G1 X162.659 Y133.926 E.01487
G1 X162.633 Y133.36 E.01775
G1 X162.362 Y132.474 E.02906
G1 X161.928 Y131.675 E.0285
G1 X161.403 Y131.035 E.02595
G1 X160.707 Y130.453 E.02845
G1 X159.907 Y130.018 E.02857
G1 X159.036 Y129.75 E.02857
G1 X158.164 Y129.663 E.02747
G1 X72.798 Y129.663 E2.67659
G1 X71.928 Y129.75 E.02741
G1 X71.059 Y130.017 E.02851
G1 X70.262 Y130.448 E.02842
G1 X69.623 Y130.971 E.0259
G1 X69.04 Y131.665 E.02839
G1 X68.604 Y132.463 E.02852
G1 X68.332 Y133.347 E.02899
G1 X68.303 Y133.919 E.01796
G1 X67.942 Y133.603 E.01504
G1 X67.395 Y133.368 E.01865
G1 X66.799 Y133.298 E.01882
G1 X66.256 Y133.37 E.01718
G1 X65.714 Y133.603 E.01851
G1 X65.352 Y133.919 E.01504
G1 X65.324 Y133.347 E.01796
G1 X65.052 Y132.465 E.02893
G1 X64.659 Y131.734 E.02601
G1 X64.036 Y130.974 E.03084
G1 X63.394 Y130.448 E.02601
G1 X62.597 Y130.017 E.02842
G1 X61.728 Y129.75 E.02851
G1 X60.858 Y129.663 E.02741
G1 X59.087 Y129.663 E.05551
G1 X59.087 Y60.785 E2.15963
G1 X59.154 Y60.094 E.02175
G1 X59.344 Y59.462 E.02069
G1 X59.65 Y58.881 E.0206
G1 X60.116 Y58.316 E.02294
G1 X60.628 Y57.902 E.02066
G1 X61.145 Y57.626 E.01839
G1 X61.846 Y57.406 E.02304
G1 X62.533 Y57.339 E.02162
G1 X64.916 Y57.339 E.07473
G1 X64.471 Y55.982 E.04479
G1 X64.424 Y55.368 E.01931
G1 X64.514 Y54.819 E.01742
G1 X64.73 Y54.304 E.01751
G1 X65.054 Y53.857 E.0173
G1 X65.483 Y53.489 E.01773
G1 X65.979 Y53.234 E.01749
G1 X66.517 Y53.1 E.0174
G1 X67.138 Y53.1 E.01947
G1 X67.677 Y53.234 E.0174
G1 X68.173 Y53.489 E.01749
G1 X68.597 Y53.853 E.01753
G1 X68.926 Y54.305 E.01751
G1 X69.141 Y54.819 E.01749
G1 X69.232 Y55.368 E.01742
G1 X69.185 Y55.982 E.01931
G1 X68.758 Y57.282 E.0429
G1 X69.26 Y56.962 F9000
;TYPE:External perimeter
G1 F1200
G1 X161.692 Y56.962 E2.89815
G1 X161.398 Y56.056 E.02985
G1 X161.344 Y55.421 E.01999
G1 X161.454 Y54.717 E.02233
G1 X161.704 Y54.124 E.02019
G1 X162.083 Y53.604 E.02016
G1 X162.575 Y53.183 E.02033
G1 X163.148 Y52.888 E.02018
G1 X163.841 Y52.726 E.02232
G1 X164.486 Y52.733 E.02021
G1 X165.046 Y52.867 E.01809
G1 X165.686 Y53.184 E.02236
G1 X166.205 Y53.64 E.02167
G1 X166.556 Y54.124 E.01874
G1 X166.806 Y54.717 E.02019
G1 X166.915 Y55.421 E.02233
G1 X166.861 Y56.056 E.01999
G1 X166.568 Y56.962 E.02985
G1 X168.485 Y56.962 E.06013
G1 X169.23 Y57.034 E.02347
G1 X169.932 Y57.244 E.02296
G1 X170.642 Y57.63 E.02534
G1 X171.204 Y58.1 E.02297
G1 X171.665 Y58.671 E.02301
G1 X171.975 Y59.25 E.02061
G1 X172.218 Y60.023 E.02538
G1 X172.29 Y60.766 E.02343
G1 X172.29 Y130.04 E2.17203
G1 X170.114 Y130.04 E.06821
G1 X169.299 Y130.121 E.0257
G1 X168.5 Y130.367 E.02621
G1 X167.766 Y130.766 E.02617
G1 X167.181 Y131.247 E.02376
G1 X166.604 Y131.953 E.02858
G1 X166.247 Y132.621 E.02376
G1 X166.002 Y133.425 E.02636
G1 X165.963 Y134.256 E.0261
G1 X166.02 Y134.68 E.01339
G1 X166.02 Y135.484 E.02521
G1 X165.955 Y135.981 E.01572
G1 X165.77 Y136.432 E.01528
G1 X165.476 Y136.82 E.01528
G1 X165.092 Y137.121 E.01528
G1 X164.645 Y137.313 E.01528
G1 X164.164 Y137.383 E.01522
G1 X163.613 Y137.312 E.01741
G1 X163.167 Y137.121 E.01522
G1 X162.783 Y136.82 E.01528
G1 X162.489 Y136.432 E.01528
G1 X162.305 Y135.981 E.01528
G1 X162.24 Y135.484 E.01572
G1 X162.24 Y134.68 E.02521
G1 X162.297 Y134.256 E.01339
G1 X162.258 Y133.425 E.0261
G1 X162.013 Y132.62 E.02638
G1 X161.614 Y131.887 E.02618
G1 X161.134 Y131.302 E.02372
G1 X160.494 Y130.766 E.02616
G1 X159.76 Y130.367 E.0262
G1 X158.961 Y130.121 E.02621
G1 X158.145 Y130.04 E.0257
G1 X72.817 Y130.04 E2.67542
G1 X72.003 Y130.121 E.02565
G1 X71.205 Y130.366 E.02615
G1 X70.473 Y130.763 E.02612
G1 X69.889 Y131.241 E.02367
G1 X69.353 Y131.878 E.0261
G1 X68.953 Y132.61 E.02615
G1 X68.706 Y133.413 E.02632
G1 X68.664 Y134.242 E.02605
G1 X68.721 Y134.669 E.01351
G1 X68.718 Y135.48 E.02542
G1 X68.652 Y135.976 E.01568
G1 X68.466 Y136.425 E.01525
G1 X68.173 Y136.811 E.01518
G1 X67.728 Y137.143 E.01744
G1 X67.343 Y137.303 E.01306
G1 X66.862 Y137.373 E.01523
G1 X66.312 Y137.302 E.01737
G1 X65.867 Y137.112 E.01519
G1 X65.483 Y136.812 E.01527
G1 X65.216 Y136.466 E.0137
G1 X65.004 Y135.976 E.01675
G1 X64.938 Y135.48 E.01568
G1 X64.935 Y134.669 E.02542
G1 X64.991 Y134.242 E.01351
G1 X64.949 Y133.413 E.02605
G1 X64.702 Y132.611 E.0263
G1 X64.344 Y131.945 E.02371
G1 X63.768 Y131.242 E.02851
G1 X63.182 Y130.763 E.02371
G1 X62.45 Y130.366 E.02612
G1 X61.653 Y130.121 E.02615
G1 X60.839 Y130.04 E.02565
G1 X58.71 Y130.04 E.06675
G1 X58.71 Y60.766 E2.17203
G1 X58.783 Y60.021 E.02347
G1 X58.993 Y59.319 E.02299
G1 X59.335 Y58.671 E.02296
G1 X59.849 Y58.047 E.02534
G1 X60.419 Y57.587 E.02298
G1 X60.999 Y57.277 E.02062
G1 X61.771 Y57.034 E.02538
G1 X62.515 Y56.962 E.02343
G1 X64.396 Y56.962 E.05898
G1 X64.098 Y56.056 E.02989
G1 X64.044 Y55.351 E.02216
G1 X64.149 Y54.715 E.02023
G1 X64.399 Y54.118 E.02027
G1 X64.778 Y53.597 E.0202
G1 X65.271 Y53.174 E.02037
G1 X65.845 Y52.878 E.02026
G1 X66.471 Y52.723 E.02022
G1 X67.184 Y52.723 E.02236
G1 X67.81 Y52.878 E.02022
G1 X68.385 Y53.174 E.02026
G1 X68.876 Y53.596 E.0203
G1 X69.257 Y54.118 E.02027
G1 X69.506 Y54.715 E.02026
G1 X69.611 Y55.351 E.02023
G1 X69.557 Y56.056 E.02216
G1 X69.279 Y56.905 E.02801
G1 X69.231 Y57.361 F9000
G1 X68.693 Y56.528
;TYPE:Gap fill
;WIDTH:0.259974
G1 F1200
G1 X68.703 Y56.505 E.00046
;WIDTH:0.254989
G1 X68.873 Y56.047 E.00861
;WIDTH:0.219366
G1 X68.879 Y56.025 E.00034
;WIDTH:0.238358
G1 X68.902 Y55.925 E.00166
;WIDTH:0.238359
G1 X68.946 Y55.498 E.00698
;WIDTH:0.216722
G1 X68.947 Y55.476 E.00033
;WIDTH:0.236504
G1 X68.945 Y55.38 E.00154
;WIDTH:0.236503
G1 X68.881 Y54.949 E.00701
;WIDTH:0.224635
G1 X68.876 Y54.926 E.00036
;WIDTH:0.231307
G1 X68.868 Y54.898 E.00046
;WIDTH:0.231307
G1 X68.679 Y54.444 E.00771
;WIDTH:0.229528
G1 X68.674 Y54.435 E.00015
;WIDTH:0.227174
G1 X68.661 Y54.415 E.00037
;WIDTH:0.236249
G1 X68.386 Y54.048 E.00737
;WIDTH:0.236249
G1 X68.336 Y53.995 E.00117
;WIDTH:0.22116
G1 X68.319 Y53.979 E.00034
;WIDTH:0.240925
G1 X68.011 Y53.729 E.00653
;WIDTH:0.240926
G1 X67.897 Y53.657 E.00222
;WIDTH:0.216902
G1 X67.877 Y53.646 E.00033
;WIDTH:0.243619
G1 X67.574 Y53.506 E.00557
;WIDTH:0.243619
G1 X67.378 Y53.441 E.00346
;WIDTH:0.212668
G1 X67.354 Y53.435 E.00034
;WIDTH:0.247256
G1 X67.103 Y53.391 E.00434
;WIDTH:0.247254
G1 X66.795 Y53.374 E.00524
;WIDTH:0.214512
G1 X66.774 Y53.374 E.00029
;WIDTH:0.243588
G1 X66.553 Y53.389 E.00371
;WIDTH:0.243589
G1 X66.29 Y53.439 E.00445
;WIDTH:0.214088
G1 X66.269 Y53.444 E.00032
;WIDTH:0.243621
G1 X66.081 Y53.506 E.0033
;WIDTH:0.24362
G1 X65.778 Y53.646 E.00557
;WIDTH:0.216903
G1 X65.758 Y53.657 E.00033
;WIDTH:0.240929
G1 X65.644 Y53.729 E.00222
;WIDTH:0.240928
G1 X65.336 Y53.979 E.00653
;WIDTH:0.221162
G1 X65.319 Y53.995 E.00034
;WIDTH:0.237475
G1 X65.265 Y54.052 E.00127
;WIDTH:0.237476
G1 X64.995 Y54.415 E.00732
;WIDTH:0.227445
G1 X64.982 Y54.435 E.00037
;WIDTH:0.22953
G1 X64.977 Y54.443 E.00014
;WIDTH:0.231307
G1 X64.788 Y54.898 E.00772
;WIDTH:0.231307
G1 X64.78 Y54.926 E.00046
;WIDTH:0.224633
G1 X64.775 Y54.949 E.00036
;WIDTH:0.2365
